;FLAVOR:Marlin
;TIME:3126
;Filament used: 1.46584m
;Layer height: 0.12
;MINX:119
;MINY:86.5
;MINZ:0.3
;MAXX:151
;MAXY:118.5
;MAXZ:19.98
;Generated with Cura_SteamEngine 4.11.0
M140 S60
M105
M190 S60
M104 S210
M105
M109 S210
M82 ;absolute extrusion mode
G21 ;metric values
G90 ;absolute positioning
M82 ;set extruder to absolute mode
M107 ;start with the fan off
G28 X0 Y0 ;move X/Y to min endstops
G28 Z0 ;move Z to min endstops
G1 Z15.0 F60 ;move the platform down 15mm
G92 E0 ;zero the extruded length
G1 F200 E3 ;extrude 3mm of feed stock
G92 E0 ;zero the extruded length again
G1 F60
M117 Printing...
G5
G92 E0
G92 E0
G1 F2400 E-3
;LAYER_COUNT:165
;LAYER:0
M107
M204 S300
M205 X8.18 Y8.18
G0 F1800 X120.027 Y89.166 Z0.3
M205 X3 Y3
;TYPE:SKIRT
G1 F2400 E0
G1 F1200 X120.445 Y88.614 E0.03454
G1 X120.924 Y88.114 E0.06909
G1 X121.458 Y87.673 E0.10364
G1 X122.039 Y87.296 E0.13819
G1 X122.659 Y86.988 E0.17273
G1 X123.311 Y86.754 E0.20729
G1 X123.985 Y86.597 E0.24182
G1 X124.841 Y86.511 E0.28474
G1 X125.33 Y86.5 E0.30914
G1 X144.293 Y86.5 E1.25521
G1 X145.077 Y86.511 E1.29433
G1 X145.768 Y86.56 E1.32889
G1 X146.448 Y86.69 E1.36343
G1 X147.109 Y86.896 E1.39797
G1 X147.742 Y87.178 E1.43254
G1 X148.338 Y87.53 E1.46708
G1 X148.889 Y87.949 E1.50161
G1 X149.389 Y88.429 E1.53619
G1 X149.83 Y88.963 E1.57074
G1 X150.207 Y89.544 E1.6053
G1 X150.514 Y90.165 E1.63986
G1 X150.747 Y90.817 E1.6744
G1 X150.904 Y91.491 E1.70893
G1 X150.989 Y92.341 E1.75154
G1 X151 Y92.83 E1.77595
G1 X151 Y111.838 E2.72426
G1 X150.991 Y112.565 E2.76053
G1 X150.942 Y113.256 E2.79509
G1 X150.814 Y113.937 E2.82966
G1 X150.609 Y114.598 E2.86419
G1 X150.329 Y115.231 E2.89872
G1 X149.977 Y115.828 E2.9333
G1 X149.56 Y116.381 E2.96785
G1 X149.081 Y116.881 E3.0024
G1 X148.548 Y117.323 E3.03694
G1 X147.967 Y117.701 E3.07152
G1 X147.347 Y118.009 E3.10606
G1 X146.696 Y118.244 E3.14059
G1 X146.021 Y118.402 E3.17518
G1 X145.159 Y118.489 E3.2184
G1 X144.67 Y118.5 E3.24281
G1 X125.63 Y118.5 E4.19271
G1 X124.932 Y118.491 E4.22754
G1 X124.241 Y118.442 E4.2621
G1 X123.56 Y118.313 E4.29668
G1 X122.899 Y118.108 E4.33121
G1 X122.266 Y117.827 E4.36576
G1 X121.669 Y117.476 E4.40031
G1 X121.117 Y117.058 E4.43486
G1 X120.617 Y116.579 E4.4694
G1 X120.175 Y116.045 E4.50398
G1 X119.798 Y115.465 E4.5385
G1 X119.49 Y114.844 E4.57308
G1 X119.255 Y114.193 E4.60761
G1 X119.098 Y113.518 E4.64218
G1 X119.011 Y112.653 E4.68556
G1 X119 Y112.158 E4.71026
G1 X119.001 Y93.093 E5.66142
G1 X119.01 Y92.428 E5.6946
G1 X119.059 Y91.737 E5.72916
G1 X119.187 Y91.057 E5.76368
G1 X119.394 Y90.395 E5.79828
G1 X119.675 Y89.762 E5.83283
G1 X120.027 Y89.166 E5.86737
M205 X8.18 Y8.18
G0 F1800 X120.423 Y89.295
M205 X3 Y3
G1 F1200 X120.839 Y88.771 E5.90075
G1 X121.314 Y88.301 E5.93408
G1 X121.843 Y87.89 E5.96751
G1 X122.416 Y87.545 E6.00087
G1 X123.027 Y87.272 E6.03426
G1 X123.665 Y87.073 E6.0676
G1 X124.323 Y86.951 E6.10099
G1 X124.852 Y86.911 E6.12746
G1 X125.33 Y86.9 E6.15131
G1 X144.293 Y86.9 E7.09738
G1 X145.071 Y86.911 E7.1362
G1 X145.738 Y86.96 E7.16956
G1 X146.395 Y87.089 E7.20297
G1 X147.031 Y87.295 E7.23632
G1 X147.639 Y87.576 E7.26974
G1 X148.208 Y87.926 E7.30307
G1 X148.732 Y88.343 E7.33648
G1 X149.202 Y88.819 E7.36985
G1 X149.612 Y89.347 E7.4032
G1 X149.957 Y89.921 E7.43661
G1 X150.23 Y90.532 E7.47
G1 X150.428 Y91.171 E7.50337
G1 X150.549 Y91.829 E7.53675
G1 X150.589 Y92.353 E7.56297
G1 X150.6 Y92.83 E7.58678
G1 X150.6 Y111.833 E8.53484
G1 X150.591 Y112.56 E8.57111
G1 X150.542 Y113.228 E8.60453
G1 X150.415 Y113.884 E8.63786
G1 X150.21 Y114.521 E8.67125
G1 X149.931 Y115.129 E8.70462
G1 X149.581 Y115.699 E8.73799
G1 X149.165 Y116.224 E8.77141
G1 X148.69 Y116.695 E8.80479
G1 X148.163 Y117.106 E8.83813
G1 X147.59 Y117.452 E8.87152
G1 X146.98 Y117.726 E8.90488
G1 X146.341 Y117.926 E8.93829
G1 X145.683 Y118.048 E8.97168
G1 X145.148 Y118.089 E8.99845
G1 X144.67 Y118.1 E9.0223
G1 X125.635 Y118.1 E9.97196
G1 X124.937 Y118.091 E10.00679
G1 X124.27 Y118.042 E10.04015
G1 X123.613 Y117.914 E10.07355
G1 X122.976 Y117.709 E10.10693
G1 X122.368 Y117.429 E10.14033
G1 X121.798 Y117.079 E10.1737
G1 X121.274 Y116.663 E10.20708
G1 X120.803 Y116.188 E10.24045
G1 X120.392 Y115.66 E10.27383
G1 X120.047 Y115.087 E10.3072
G1 X119.773 Y114.477 E10.34056
G1 X119.573 Y113.838 E10.37397
G1 X119.452 Y113.18 E10.40735
G1 X119.411 Y112.642 E10.43427
G1 X119.4 Y112.158 E10.45842
G1 X119.401 Y93.098 E11.40933
G1 X119.41 Y92.433 E11.44251
G1 X119.459 Y91.766 E11.47587
G1 X119.587 Y91.109 E11.50927
G1 X119.792 Y90.473 E11.5426
G1 X120.072 Y89.865 E11.576
G1 X120.423 Y89.295 E11.6094
M205 X8.18 Y8.18
G0 F1800 X120.819 Y89.429
M205 X3 Y3
G1 F1200 X121.232 Y88.935 E11.64152
G1 X121.703 Y88.495 E11.67368
G1 X122.226 Y88.117 E11.70587
G1 X122.79 Y87.806 E11.738
G1 X123.389 Y87.568 E11.77016
G1 X124.013 Y87.405 E11.80234
G1 X124.863 Y87.311 E11.845
G1 X125.33 Y87.3 E11.86831
G1 X144.293 Y87.3 E12.81437
G1 X145.065 Y87.311 E12.85289
G1 X145.708 Y87.36 E12.88507
G1 X146.34 Y87.488 E12.91724
G1 X146.951 Y87.694 E12.94941
G1 X147.532 Y87.973 E12.98156
G1 X148.074 Y88.322 E13.01372
G1 X148.568 Y88.736 E13.04588
G1 X149.008 Y89.208 E13.07807
G1 X149.386 Y89.73 E13.11022
G1 X149.696 Y90.295 E13.14238
G1 X149.934 Y90.894 E13.17453
G1 X150.096 Y91.518 E13.2067
G1 X150.189 Y92.364 E13.24916
G1 X150.2 Y92.83 E13.27241
G1 X150.2 Y111.828 E14.22023
G1 X150.191 Y112.555 E14.2565
G1 X150.143 Y113.198 E14.28867
G1 X150.016 Y113.83 E14.32083
G1 X149.811 Y114.442 E14.35303
G1 X149.533 Y115.023 E14.38516
G1 X149.185 Y115.566 E14.41734
G1 X148.772 Y116.061 E14.4495
G1 X148.301 Y116.501 E14.48166
G1 X147.779 Y116.88 E14.51384
G1 X147.215 Y117.191 E14.54598
G1 X146.616 Y117.43 E14.57815
G1 X145.993 Y117.594 E14.61029
G1 X145.137 Y117.689 E14.65326
G1 X144.67 Y117.7 E14.67656
G1 X125.64 Y117.7 E15.62597
G1 X124.942 Y117.691 E15.6608
G1 X124.299 Y117.642 E15.69297
G1 X123.667 Y117.515 E15.72513
G1 X123.056 Y117.31 E15.75729
G1 X122.475 Y117.032 E15.78942
G1 X121.932 Y116.683 E15.82162
G1 X121.437 Y116.27 E15.85379
G1 X120.997 Y115.799 E15.88594
G1 X120.618 Y115.277 E15.91813
G1 X120.307 Y114.713 E15.95026
G1 X120.069 Y114.114 E15.98242
G1 X119.906 Y113.49 E16.01459
G1 X119.811 Y112.631 E16.05771
G1 X119.8 Y112.158 E16.08131
G1 X119.8 Y93.104 E17.03192
G1 X119.809 Y92.439 E17.0651
G1 X119.858 Y91.796 E17.09727
G1 X119.986 Y91.164 E17.12944
G1 X120.191 Y90.553 E17.1616
G1 X120.47 Y89.972 E17.19375
G1 X120.819 Y89.429 E17.22596
M205 X8.18 Y8.18
G1 F2400 E14.22596
;MESH:xyzCalibration_cube.stl
G0 F1800 X124.335 Y93.114
G0 X125.614 Y93.114
G0 X144.33 Y111.83
G1 F2400 E17.22596
G0 F1800 X144.4 Y111.9
M205 X3 Y3
;TYPE:WALL-INNER
G1 F1200 X125.6 Y111.9 E18.16389
G1 X125.6 Y93.1 E19.10183
G1 X144.4 Y93.1 E20.03976
G1 X144.4 Y111.9 E20.9777
M205 X8.18 Y8.18
G0 F1800 X144.8 Y112.3
M205 X3 Y3
;TYPE:WALL-OUTER
G1 F1200 X125.2 Y112.3 E21.95555
G1 X125.2 Y92.7 E22.93339
G1 X144.8 Y92.7 E23.91124
G1 X144.8 Y112.3 E24.88909
M205 X8.18 Y8.18
G0 F1800 X144.6 Y112.3
G0 X144.01 Y111.51
M205 X3 Y3
;TYPE:SKIN
G1 F1200 X125.99 Y111.51 E25.78811
G1 X125.99 Y93.49 E26.68713
G1 X144.01 Y93.49 E27.58616
G1 X144.01 Y111.51 E28.48518
M205 X8.18 Y8.18
G0 F1800 X143.848 Y94.068
M205 X3 Y3
G1 F1200 X143.43 Y93.65 E28.51467
M205 X8.18 Y8.18
G0 F1800 X142.865 Y93.65
M205 X3 Y3
G1 F1200 X143.848 Y94.634 E28.58406
M205 X8.18 Y8.18
G0 F1800 X143.848 Y95.199
M205 X3 Y3
G1 F1200 X142.299 Y93.65 E28.69335
M205 X8.18 Y8.18
G0 F1800 X141.733 Y93.65
M205 X3 Y3
G1 F1200 X143.848 Y95.765 E28.84257
M205 X8.18 Y8.18
G0 F1800 X143.848 Y96.331
M205 X3 Y3
G1 F1200 X141.168 Y93.65 E29.0317
M205 X8.18 Y8.18
G0 F1800 X140.602 Y93.65
M205 X3 Y3
G1 F1200 X143.848 Y96.896 E29.26072
M205 X8.18 Y8.18
G0 F1800 X143.848 Y97.462
M205 X3 Y3
G1 F1200 X140.036 Y93.65 E29.52968
M205 X8.18 Y8.18
G0 F1800 X139.471 Y93.65
M205 X3 Y3
G1 F1200 X143.848 Y98.028 E29.83853
M205 X8.18 Y8.18
G0 F1800 X143.848 Y98.594
M205 X3 Y3
G1 F1200 X138.905 Y93.65 E30.18733
M205 X8.18 Y8.18
G0 F1800 X138.339 Y93.65
M205 X3 Y3
G1 F1200 X143.848 Y99.159 E30.57602
M205 X8.18 Y8.18
G0 F1800 X143.848 Y99.725
M205 X3 Y3
G1 F1200 X137.774 Y93.65 E31.0046
M205 X8.18 Y8.18
G0 F1800 X137.208 Y93.65
M205 X3 Y3
G1 F1200 X143.848 Y100.291 E31.47313
M205 X8.18 Y8.18
G0 F1800 X143.848 Y100.856
M205 X3 Y3
G1 F1200 X136.642 Y93.65 E31.98155
M205 X8.18 Y8.18
G0 F1800 X136.077 Y93.65
M205 X3 Y3
G1 F1200 X143.848 Y101.422 E32.52987
M205 X8.18 Y8.18
G0 F1800 X143.848 Y101.988
M205 X3 Y3
G1 F1200 X135.511 Y93.65 E33.11813
M205 X8.18 Y8.18
G0 F1800 X134.945 Y93.65
M205 X3 Y3
G1 F1200 X143.848 Y102.553 E33.74628
M205 X8.18 Y8.18
G0 F1800 X143.848 Y103.119
M205 X3 Y3
G1 F1200 X134.379 Y93.65 E34.41437
M205 X8.18 Y8.18
G0 F1800 X133.814 Y93.65
M205 X3 Y3
G1 F1200 X143.848 Y103.685 E35.12236
M205 X8.18 Y8.18
G0 F1800 X143.848 Y104.25
M205 X3 Y3
G1 F1200 X133.248 Y93.65 E35.87025
M205 X8.18 Y8.18
G0 F1800 X132.682 Y93.65
M205 X3 Y3
G1 F1200 X143.848 Y104.816 E36.65807
M205 X8.18 Y8.18
G0 F1800 X143.848 Y105.382
M205 X3 Y3
G1 F1200 X132.117 Y93.65 E37.48579
M205 X8.18 Y8.18
G0 F1800 X131.551 Y93.65
M205 X3 Y3
G1 F1200 X143.848 Y105.947 E38.35341
M205 X8.18 Y8.18
G0 F1800 X143.848 Y106.513
M205 X3 Y3
G1 F1200 X130.985 Y93.65 E39.26096
M205 X8.18 Y8.18
G0 F1800 X130.42 Y93.65
M205 X3 Y3
G1 F1200 X143.848 Y107.079 E40.20842
M205 X8.18 Y8.18
G0 F1800 X143.848 Y107.644
M205 X3 Y3
G1 F1200 X129.854 Y93.65 E41.19577
M205 X8.18 Y8.18
G0 F1800 X129.288 Y93.65
M205 X3 Y3
G1 F1200 X143.848 Y108.21 E42.22305
M205 X8.18 Y8.18
G0 F1800 X143.848 Y108.776
M205 X3 Y3
G1 F1200 X128.723 Y93.65 E43.29024
M205 X8.18 Y8.18
G0 F1800 X128.157 Y93.65
M205 X3 Y3
G1 F1200 X143.848 Y109.342 E44.39736
M205 X8.18 Y8.18
G0 F1800 X143.848 Y109.907
M205 X3 Y3
G1 F1200 X127.591 Y93.65 E45.54438
M205 X8.18 Y8.18
G0 F1800 X127.026 Y93.65
M205 X3 Y3
G1 F1200 X143.848 Y110.473 E46.7313
M205 X8.18 Y8.18
G0 F1800 X143.848 Y111.039
M205 X3 Y3
G1 F1200 X126.46 Y93.65 E47.95815
M205 X8.18 Y8.18
G0 F1800 X126.149 Y93.905
M205 X3 Y3
G1 F1200 X143.593 Y111.349 E49.18892
M205 X8.18 Y8.18
G0 F1800 X143.027 Y111.349
M205 X3 Y3
G1 F1200 X126.149 Y94.47 E50.37979
M205 X8.18 Y8.18
G0 F1800 X126.149 Y95.036
M205 X3 Y3
G1 F1200 X142.462 Y111.349 E51.53076
M205 X8.18 Y8.18
G0 F1800 X141.896 Y111.349
M205 X3 Y3
G1 F1200 X126.149 Y95.602 E52.64179
M205 X8.18 Y8.18
G0 F1800 X126.149 Y96.167
M205 X3 Y3
G1 F1200 X141.33 Y111.349 E53.71293
M205 X8.18 Y8.18
G0 F1800 X140.765 Y111.349
M205 X3 Y3
G1 F1200 X126.149 Y96.733 E54.74417
M205 X8.18 Y8.18
G0 F1800 X126.149 Y97.299
M205 X3 Y3
G1 F1200 X140.199 Y111.349 E55.73547
M205 X8.18 Y8.18
G0 F1800 X139.633 Y111.349
M205 X3 Y3
G1 F1200 X126.149 Y97.864 E56.68688
M205 X8.18 Y8.18
G0 F1800 X126.149 Y98.43
M205 X3 Y3
G1 F1200 X139.068 Y111.349 E57.59838
M205 X8.18 Y8.18
G0 F1800 X138.502 Y111.349
M205 X3 Y3
G1 F1200 X126.149 Y98.996 E58.46995
M205 X8.18 Y8.18
G0 F1800 X126.149 Y99.562
M205 X3 Y3
G1 F1200 X137.936 Y111.349 E59.30159
M205 X8.18 Y8.18
G0 F1800 X137.371 Y111.349
M205 X3 Y3
G1 F1200 X126.149 Y100.127 E60.09336
M205 X8.18 Y8.18
G0 F1800 X126.149 Y100.693
M205 X3 Y3
G1 F1200 X136.805 Y111.349 E60.8452
M205 X8.18 Y8.18
G0 F1800 X136.239 Y111.349
M205 X3 Y3
G1 F1200 X126.149 Y101.259 E61.5571
M205 X8.18 Y8.18
G0 F1800 X126.149 Y101.824
M205 X3 Y3
G1 F1200 X135.673 Y111.349 E62.22911
M205 X8.18 Y8.18
G0 F1800 X135.108 Y111.349
M205 X3 Y3
G1 F1200 X126.149 Y102.39 E62.86121
M205 X8.18 Y8.18
G0 F1800 X126.149 Y102.956
M205 X3 Y3
G1 F1200 X134.542 Y111.349 E63.45339
M205 X8.18 Y8.18
G0 F1800 X133.976 Y111.349
M205 X3 Y3
G1 F1200 X126.149 Y103.521 E64.00566
M205 X8.18 Y8.18
G0 F1800 X126.149 Y104.087
M205 X3 Y3
G1 F1200 X133.411 Y111.349 E64.51803
M205 X8.18 Y8.18
G0 F1800 X132.845 Y111.349
M205 X3 Y3
G1 F1200 X126.149 Y104.653 E64.99047
M205 X8.18 Y8.18
G0 F1800 X126.149 Y105.218
M205 X3 Y3
G1 F1200 X132.279 Y111.349 E65.42301
M205 X8.18 Y8.18
G0 F1800 X131.714 Y111.349
M205 X3 Y3
G1 F1200 X126.149 Y105.784 E65.81565
M205 X8.18 Y8.18
G0 F1800 X126.149 Y106.35
M205 X3 Y3
G1 F1200 X131.148 Y111.349 E66.16836
M205 X8.18 Y8.18
G0 F1800 X130.582 Y111.349
M205 X3 Y3
G1 F1200 X126.149 Y106.915 E66.48117
M205 X8.18 Y8.18
G0 F1800 X126.149 Y107.481
M205 X3 Y3
G1 F1200 X130.017 Y111.349 E66.75407
M205 X8.18 Y8.18
G0 F1800 X129.451 Y111.349
M205 X3 Y3
G1 F1200 X126.149 Y108.047 E66.98705
M205 X8.18 Y8.18
G0 F1800 X126.149 Y108.613
M205 X3 Y3
G1 F1200 X128.885 Y111.349 E67.18009
M205 X8.18 Y8.18
G0 F1800 X128.32 Y111.349
M205 X3 Y3
G1 F1200 X126.149 Y109.178 E67.33326
M205 X8.18 Y8.18
G0 F1800 X126.149 Y109.744
M205 X3 Y3
G1 F1200 X127.754 Y111.349 E67.4465
M205 X8.18 Y8.18
G0 F1800 X127.188 Y111.349
M205 X3 Y3
G1 F1200 X126.149 Y110.31 E67.51981
M205 X8.18 Y8.18
G0 F1800 X126.149 Y110.875
M205 X3 Y3
G1 F1200 X126.623 Y111.349 E67.55325
M205 X8.18 Y8.18
;MESH:NONMESH
G0 F600 X126.623 Y111.349 Z0.42
G0 F1800 X144.33 Y111.83
G0 X144.4 Y111.9
;TIME_ELAPSED:85.197588
;LAYER:1
M106 S255
M205 X4 Y4
;TYPE:WALL-INNER
;MESH:xyzCalibration_cube.stl
G1 F1650 X125.6 Y111.9 E67.92843
G1 X125.6 Y93.1 E68.3036
G1 X144.4 Y93.1 E68.67878
G1 X144.4 Y111.9 E69.05395
M204 S600
M205 X19.09 Y19.09
G0 F2700 X144.8 Y112.3
M204 S300
M205 X3 Y3
;TYPE:WALL-OUTER
G1 F1320 X125.2 Y112.3 E69.44509
G1 X125.2 Y92.7 E69.83623
G1 X144.8 Y92.7 E70.22737
G1 X144.8 Y112.3 E70.61851
M204 S600
M205 X19.09 Y19.09
G0 F2700 X144.6 Y112.3
G0 X144.01 Y111.51
M204 S300
M205 X3 Y3
;TYPE:SKIN
G1 F1290 X125.99 Y111.51 E70.97812
G1 X125.99 Y93.49 E71.33773
G1 X144.01 Y93.49 E71.69733
G1 X144.01 Y111.51 E72.05694
M204 S600
M205 X19.09 Y19.09
G0 F2700 X143.848 Y111.275
M204 S300
M205 X3 Y3
G1 F1290 X143.773 Y111.35 E72.05906
M204 S600
M205 X19.09 Y19.09
G0 F2700 X143.208 Y111.35
M204 S300
M205 X3 Y3
G1 F1290 X143.848 Y110.709 E72.07714
M204 S600
M205 X19.09 Y19.09
G0 F2700 X143.848 Y110.143
M204 S300
M205 X3 Y3
G1 F1290 X142.642 Y111.35 E72.11119
M204 S600
M205 X19.09 Y19.09
G0 F2700 X142.076 Y111.35
M204 S300
M205 X3 Y3
G1 F1290 X143.848 Y109.578 E72.1612
M204 S600
M205 X19.09 Y19.09
G0 F2700 X143.848 Y109.012
M204 S300
M205 X3 Y3
G1 F1290 X141.511 Y111.35 E72.22716
M204 S600
M205 X19.09 Y19.09
G0 F2700 X140.945 Y111.35
M204 S300
M205 X3 Y3
G1 F1290 X143.848 Y108.446 E72.30911
M204 S600
M205 X19.09 Y19.09
G0 F2700 X143.848 Y107.881
M204 S300
M205 X3 Y3
G1 F1290 X140.379 Y111.35 E72.40701
M204 S600
M205 X19.09 Y19.09
G0 F2700 X139.814 Y111.35
M204 S300
M205 X3 Y3
G1 F1290 X143.848 Y107.315 E72.52087
M204 S600
M205 X19.09 Y19.09
G0 F2700 X143.848 Y106.749
M204 S300
M205 X3 Y3
G1 F1290 X139.248 Y111.35 E72.65071
M204 S600
M205 X19.09 Y19.09
G0 F2700 X138.682 Y111.35
M204 S300
M205 X3 Y3
G1 F1290 X143.848 Y106.184 E72.7965
M204 S600
M205 X19.09 Y19.09
G0 F2700 X143.848 Y105.618
M204 S300
M205 X3 Y3
G1 F1290 X138.117 Y111.35 E72.95826
M204 S600
M205 X19.09 Y19.09
G0 F2700 X137.551 Y111.35
M204 S300
M205 X3 Y3
G1 F1290 X143.848 Y105.052 E73.13599
M204 S600
M205 X19.09 Y19.09
G0 F2700 X143.848 Y104.487
M204 S300
M205 X3 Y3
G1 F1290 X136.985 Y111.35 E73.32968
M204 S600
M205 X19.09 Y19.09
G0 F2700 X136.419 Y111.35
M204 S300
M205 X3 Y3
G1 F1290 X143.848 Y103.921 E73.53934
M204 S600
M205 X19.09 Y19.09
G0 F2700 X143.848 Y103.355
M204 S300
M205 X3 Y3
G1 F1290 X135.854 Y111.35 E73.76496
M204 S600
M205 X19.09 Y19.09
G0 F2700 X135.288 Y111.35
M204 S300
M205 X3 Y3
G1 F1290 X143.848 Y102.789 E74.00656
M204 S600
M205 X19.09 Y19.09
G0 F2700 X143.848 Y102.224
M204 S300
M205 X3 Y3
G1 F1290 X134.722 Y111.35 E74.26411
M204 S600
M205 X19.09 Y19.09
G0 F2700 X134.157 Y111.35
M204 S300
M205 X3 Y3
G1 F1290 X143.848 Y101.658 E74.53763
M204 S600
M205 X19.09 Y19.09
G0 F2700 X143.848 Y101.092
M204 S300
M205 X3 Y3
G1 F1290 X133.591 Y111.35 E74.82712
M204 S600
M205 X19.09 Y19.09
G0 F2700 X133.025 Y111.35
M204 S300
M205 X3 Y3
G1 F1290 X143.848 Y100.527 E75.13257
M204 S600
M205 X19.09 Y19.09
G0 F2700 X143.848 Y99.961
M204 S300
M205 X3 Y3
G1 F1290 X132.46 Y111.35 E75.45397
M204 S600
M205 X19.09 Y19.09
G0 F2700 X131.894 Y111.35
M204 S300
M205 X3 Y3
G1 F1290 X143.848 Y99.395 E75.79136
M204 S600
M205 X19.09 Y19.09
G0 F2700 X143.848 Y98.83
M204 S300
M205 X3 Y3
