;FLAVOR:Marlin
;TIME:4294
;Filament used: 1.66584m
;Layer height: 0.12
;MINX:119
;MINY:86.5
;MINZ:0.24
;MAXX:151
;MAXY:118.5
;MAXZ:20.04
;Generated with Cura_SteamEngine 4.11.0
M140 S60
M105
M190 S60
M104 S210
M105
M109 S210
M82 ;absolute extrusion mode
G21 ;metric values
G90 ;absolute positioning
M82 ;set extruder to absolute mode
M107 ;start with the fan off
G28 X0 Y0 ;move X/Y to min endstops
G28 Z0 ;move Z to min endstops
G1 Z15.0 F60 ;move the platform down 15mm
G92 E0 ;zero the extruded length
G1 F200 E3 ;extrude 3mm of feed stock
G92 E0 ;zero the extruded length again
G1 F60
M117 Printing...
G5
G92 E0
G92 E0
G1 F2400 E-3
;LAYER_COUNT:166
;LAYER:0
M107
M204 S167
M205 X10 Y10
G0 F1440 X120.027 Y89.166 Z0.24
M205 X2 Y2
;TYPE:SKIRT
G1 F2400 E0
G1 F1200 X120.445 Y88.614 E0.02764
G1 X120.924 Y88.114 E0.05527
G1 X121.458 Y87.673 E0.08291
G1 X122.039 Y87.296 E0.11056
G1 X122.659 Y86.988 E0.13819
G1 X123.311 Y86.754 E0.16583
G1 X123.985 Y86.597 E0.19346
G1 X124.841 Y86.511 E0.22779
G1 X125.33 Y86.5 E0.24731
G1 X144.293 Y86.5 E1.00417
G1 X145.077 Y86.511 E1.03546
G1 X145.768 Y86.56 E1.06311
G1 X146.448 Y86.69 E1.09074
G1 X147.109 Y86.896 E1.11838
G1 X147.742 Y87.178 E1.14603
G1 X148.338 Y87.53 E1.17366
G1 X148.889 Y87.949 E1.20129
G1 X149.389 Y88.429 E1.22895
G1 X149.83 Y88.963 E1.25659
G1 X150.207 Y89.544 E1.28424
G1 X150.514 Y90.165 E1.31189
G1 X150.747 Y90.817 E1.33952
G1 X150.904 Y91.491 E1.36714
G1 X150.989 Y92.341 E1.40124
G1 X151 Y92.83 E1.42076
G1 X151 Y111.838 E2.17941
G1 X150.991 Y112.565 E2.20843
G1 X150.942 Y113.256 E2.23608
G1 X150.814 Y113.937 E2.26373
G1 X150.609 Y114.598 E2.29135
G1 X150.329 Y115.231 E2.31898
G1 X149.977 Y115.828 E2.34664
G1 X149.56 Y116.381 E2.37428
G1 X149.081 Y116.881 E2.40192
G1 X148.548 Y117.323 E2.42955
G1 X147.967 Y117.701 E2.45722
G1 X147.347 Y118.009 E2.48485
G1 X146.696 Y118.244 E2.51247
G1 X146.021 Y118.402 E2.54014
G1 X145.159 Y118.489 E2.57472
G1 X144.67 Y118.5 E2.59424
G1 X125.63 Y118.5 E3.35417
G1 X124.932 Y118.491 E3.38203
G1 X124.241 Y118.442 E3.40968
G1 X123.56 Y118.313 E3.43734
G1 X122.899 Y118.108 E3.46497
G1 X122.266 Y117.827 E3.49261
G1 X121.669 Y117.476 E3.52025
G1 X121.117 Y117.058 E3.54788
G1 X120.617 Y116.579 E3.57552
G1 X120.175 Y116.045 E3.60319
G1 X119.798 Y115.465 E3.6308
G1 X119.49 Y114.844 E3.65846
G1 X119.255 Y114.193 E3.68609
G1 X119.098 Y113.518 E3.71375
G1 X119.011 Y112.653 E3.74845
G1 X119 Y112.158 E3.76821
G1 X119.001 Y93.093 E4.52913
G1 X119.01 Y92.428 E4.55568
G1 X119.059 Y91.737 E4.58332
G1 X119.187 Y91.057 E4.61094
G1 X119.394 Y90.395 E4.63862
G1 X119.675 Y89.762 E4.66627
G1 X120.027 Y89.166 E4.69389
M205 X10 Y10
G0 F1440 X120.423 Y89.295
M205 X2 Y2
G1 F1200 X120.839 Y88.771 E4.7206
G1 X121.314 Y88.301 E4.74727
G1 X121.843 Y87.89 E4.774
G1 X122.416 Y87.545 E4.8007
G1 X123.027 Y87.272 E4.82741
G1 X123.665 Y87.073 E4.85408
G1 X124.323 Y86.951 E4.88079
G1 X124.852 Y86.911 E4.90197
G1 X125.33 Y86.9 E4.92105
G1 X144.293 Y86.9 E5.6779
G1 X145.071 Y86.911 E5.70896
G1 X145.738 Y86.96 E5.73565
G1 X146.395 Y87.089 E5.76237
G1 X147.031 Y87.295 E5.78906
G1 X147.639 Y87.576 E5.81579
G1 X148.208 Y87.926 E5.84245
G1 X148.732 Y88.343 E5.86918
G1 X149.202 Y88.819 E5.89588
G1 X149.612 Y89.347 E5.92256
G1 X149.957 Y89.921 E5.94929
G1 X150.23 Y90.532 E5.976
G1 X150.428 Y91.171 E6.0027
G1 X150.549 Y91.829 E6.0294
G1 X150.589 Y92.353 E6.05038
G1 X150.6 Y92.83 E6.06942
G1 X150.6 Y111.833 E6.82787
G1 X150.591 Y112.56 E6.85689
G1 X150.542 Y113.228 E6.88362
G1 X150.415 Y113.884 E6.91029
G1 X150.21 Y114.521 E6.937
G1 X149.931 Y115.129 E6.9637
G1 X149.581 Y115.699 E6.9904
G1 X149.165 Y116.224 E7.01713
G1 X148.69 Y116.695 E7.04383
G1 X148.163 Y117.106 E7.0705
G1 X147.59 Y117.452 E7.09722
G1 X146.98 Y117.726 E7.12391
G1 X146.341 Y117.926 E7.15063
G1 X145.683 Y118.048 E7.17734
G1 X145.148 Y118.089 E7.19876
G1 X144.67 Y118.1 E7.21784
G1 X125.635 Y118.1 E7.97757
G1 X124.937 Y118.091 E8.00543
G1 X124.27 Y118.042 E8.03212
G1 X123.613 Y117.914 E8.05884
G1 X122.976 Y117.709 E8.08555
G1 X122.368 Y117.429 E8.11226
G1 X121.798 Y117.079 E8.13896
G1 X121.274 Y116.663 E8.16566
G1 X120.803 Y116.188 E8.19236
G1 X120.392 Y115.66 E8.21907
G1 X120.047 Y115.087 E8.24576
G1 X119.773 Y114.477 E8.27245
G1 X119.573 Y113.838 E8.29917
G1 X119.452 Y113.18 E8.32588
G1 X119.411 Y112.642 E8.34741
G1 X119.4 Y112.158 E8.36673
G1 X119.401 Y93.098 E9.12746
G1 X119.41 Y92.433 E9.154
G1 X119.459 Y91.766 E9.1807
G1 X119.587 Y91.109 E9.20741
G1 X119.792 Y90.473 E9.23408
G1 X120.072 Y89.865 E9.2608
G1 X120.423 Y89.295 E9.28752
M205 X10 Y10
G0 F1440 X120.819 Y89.429
M205 X2 Y2
G1 F1200 X121.232 Y88.935 E9.31322
G1 X121.703 Y88.495 E9.33894
G1 X122.226 Y88.117 E9.3647
G1 X122.79 Y87.806 E9.3904
G1 X123.389 Y87.568 E9.41613
G1 X124.013 Y87.405 E9.44187
G1 X124.863 Y87.311 E9.476
G1 X125.33 Y87.3 E9.49465
G1 X144.293 Y87.3 E10.2515
G1 X145.065 Y87.311 E10.28231
G1 X145.708 Y87.36 E10.30805
G1 X146.34 Y87.488 E10.33379
G1 X146.951 Y87.694 E10.35952
G1 X147.532 Y87.973 E10.38525
G1 X148.074 Y88.322 E10.41098
G1 X148.568 Y88.736 E10.4367
G1 X149.008 Y89.208 E10.46246
G1 X149.386 Y89.73 E10.48818
G1 X149.696 Y90.295 E10.5139
G1 X149.934 Y90.894 E10.53963
G1 X150.096 Y91.518 E10.56536
G1 X150.189 Y92.364 E10.59933
G1 X150.2 Y92.83 E10.61793
G1 X150.2 Y111.828 E11.37618
G1 X150.191 Y112.555 E11.4052
G1 X150.143 Y113.198 E11.43094
G1 X150.016 Y113.83 E11.45666
G1 X149.811 Y114.442 E11.48242
G1 X149.533 Y115.023 E11.50813
G1 X149.185 Y115.566 E11.53387
G1 X148.772 Y116.061 E11.5596
G1 X148.301 Y116.501 E11.58533
G1 X147.779 Y116.88 E11.61107
G1 X147.215 Y117.191 E11.63678
G1 X146.616 Y117.43 E11.66252
G1 X145.993 Y117.594 E11.68823
G1 X145.137 Y117.689 E11.72261
G1 X144.67 Y117.7 E11.74125
G1 X125.64 Y117.7 E12.50078
G1 X124.942 Y117.691 E12.52864
G1 X124.299 Y117.642 E12.55438
G1 X123.667 Y117.515 E12.58011
G1 X123.056 Y117.31 E12.60583
G1 X122.475 Y117.032 E12.63154
G1 X121.932 Y116.683 E12.6573
G1 X121.437 Y116.27 E12.68303
G1 X120.997 Y115.799 E12.70875
G1 X120.618 Y115.277 E12.7345
G1 X120.307 Y114.713 E12.76021
G1 X120.069 Y114.114 E12.78593
G1 X119.906 Y113.49 E12.81167
G1 X119.811 Y112.631 E12.84617
G1 X119.8 Y112.158 E12.86505
G1 X119.8 Y93.104 E13.62554
G1 X119.809 Y92.439 E13.65208
G1 X119.858 Y91.796 E13.67782
G1 X119.986 Y91.164 E13.70356
G1 X120.191 Y90.553 E13.72928
G1 X120.47 Y89.972 E13.755
G1 X120.819 Y89.429 E13.78076
M205 X10 Y10
G1 F2400 E10.78076
;MESH:xyzCalibration_cube.stl
G0 F1440 X124.335 Y93.114
G0 X125.614 Y93.114
G0 X144 Y111.5
M205 X2 Y2
;TYPE:WALL-INNER
G1 F2400 E13.78076
G1 F1200 X126 Y111.5 E14.49918
G1 X126 Y93.5 E15.2176
G1 X144 Y93.5 E15.93602
G1 X144 Y111.5 E16.65444
M205 X10 Y10
G0 F1440 X144.4 Y111.9
M205 X2 Y2
G1 F1200 X125.6 Y111.9 E17.40479
G1 X125.6 Y93.1 E18.15514
G1 X144.4 Y93.1 E18.90549
G1 X144.4 Y111.9 E19.65583
M205 X10 Y10
G0 F1440 X144.8 Y112.3
M205 X2 Y2
;TYPE:WALL-OUTER
G1 F1200 X125.2 Y112.3 E20.43811
G1 X125.2 Y92.7 E21.22039
G1 X144.8 Y92.7 E22.00267
G1 X144.8 Y112.3 E22.78495
M205 X10 Y10
G0 F1440 X144.6 Y112.3
G0 X144.33 Y111.83
G0 X143.61 Y111.11
M205 X2 Y2
;TYPE:SKIN
G1 F1200 X126.39 Y111.11 E23.47224
G1 X126.39 Y93.89 E24.15952
G1 X143.61 Y93.89 E24.84681
G1 X143.61 Y111.11 E25.5341
M205 X10 Y10
G0 F1440 X143.449 Y94.234
M205 X2 Y2
G1 F1200 X143.264 Y94.05 E25.54451
M205 X10 Y10
G0 F1440 X142.699 Y94.05
M205 X2 Y2
G1 F1200 X143.449 Y94.8 E25.58685
M205 X10 Y10
G0 F1440 X143.449 Y95.366
M205 X2 Y2
G1 F1200 X142.133 Y94.05 E25.66113
M205 X10 Y10
G0 F1440 X141.567 Y94.05
M205 X2 Y2
G1 F1200 X143.449 Y95.931 E25.76733
M205 X10 Y10
G0 F1440 X143.449 Y96.497
M205 X2 Y2
G1 F1200 X141.002 Y94.05 E25.90545
M205 X10 Y10
G0 F1440 X140.436 Y94.05
M205 X2 Y2
G1 F1200 X143.449 Y97.063 E26.07551
M205 X10 Y10
G0 F1440 X143.449 Y97.628
M205 X2 Y2
G1 F1200 X139.87 Y94.05 E26.2775
M205 X10 Y10
G0 F1440 X139.304 Y94.05
M205 X2 Y2
G1 F1200 X143.449 Y98.194 E26.51143
M205 X10 Y10
G0 F1440 X143.449 Y98.76
M205 X2 Y2
G1 F1200 X138.739 Y94.05 E26.77728
M205 X10 Y10
G0 F1440 X138.173 Y94.05
M205 X2 Y2
G1 F1200 X143.449 Y99.325 E27.07506
M205 X10 Y10
G0 F1440 X143.449 Y99.891
M205 X2 Y2
G1 F1200 X137.607 Y94.05 E27.40478
M205 X10 Y10
G0 F1440 X137.042 Y94.05
M205 X2 Y2
G1 F1200 X143.449 Y100.457 E27.76641
M205 X10 Y10
G0 F1440 X143.449 Y101.022
M205 X2 Y2
G1 F1200 X136.476 Y94.05 E28.15997
M205 X10 Y10
G0 F1440 X135.91 Y94.05
M205 X2 Y2
G1 F1200 X143.449 Y101.588 E28.58548
M205 X10 Y10
G0 F1440 X143.449 Y102.154
M205 X2 Y2
G1 F1200 X135.345 Y94.05 E29.0429
M205 X10 Y10
G0 F1440 X134.779 Y94.05
M205 X2 Y2
G1 F1200 X143.449 Y102.719 E29.53225
M205 X10 Y10
G0 F1440 X143.449 Y103.285
M205 X2 Y2
G1 F1200 X134.213 Y94.05 E30.05354
M205 X10 Y10
G0 F1440 X133.648 Y94.05
M205 X2 Y2
G1 F1200 X143.449 Y103.851 E30.60675
M205 X10 Y10
G0 F1440 X143.449 Y104.417
M205 X2 Y2
G1 F1200 X133.082 Y94.05 E31.19191
M205 X10 Y10
G0 F1440 X132.516 Y94.05
M205 X2 Y2
G1 F1200 X143.449 Y104.982 E31.80898
M205 X10 Y10
G0 F1440 X143.449 Y105.548
M205 X2 Y2
G1 F1200 X131.951 Y94.05 E32.45798
M205 X10 Y10
G0 F1440 X131.385 Y94.05
M205 X2 Y2
G1 F1200 X143.449 Y106.114 E33.13893
M205 X10 Y10
G0 F1440 X143.449 Y106.679
M205 X2 Y2
G1 F1200 X130.819 Y94.05 E33.85179
M205 X10 Y10
G0 F1440 X130.254 Y94.05
M205 X2 Y2
G1 F1200 X143.449 Y107.245 E34.59657
M205 X10 Y10
G0 F1440 X143.449 Y107.811
M205 X2 Y2
G1 F1200 X129.688 Y94.05 E35.3733
M205 X10 Y10
G0 F1440 X129.122 Y94.05
M205 X2 Y2
G1 F1200 X143.449 Y108.376 E36.18195
M205 X10 Y10
G0 F1440 X143.449 Y108.942
M205 X2 Y2
G1 F1200 X128.556 Y94.05 E37.02255
M205 X10 Y10
G0 F1440 X127.991 Y94.05
M205 X2 Y2
G1 F1200 X143.449 Y109.508 E37.89507
M205 X10 Y10
G0 F1440 X143.449 Y110.073
M205 X2 Y2
G1 F1200 X127.425 Y94.05 E38.7995
M205 X10 Y10
G0 F1440 X126.859 Y94.05
M205 X2 Y2
G1 F1200 X143.449 Y110.639 E39.73588
M205 X10 Y10
G0 F1440 X143.194 Y110.95
M205 X2 Y2
G1 F1200 X126.548 Y94.304 E40.67546
M205 X10 Y10
G0 F1440 X126.548 Y94.87
M205 X2 Y2
G1 F1200 X142.628 Y110.95 E41.58308
M205 X10 Y10
G0 F1440 X142.062 Y110.95
M205 X2 Y2
G1 F1200 X126.548 Y95.436 E42.45876
M205 X10 Y10
G0 F1440 X126.548 Y96.001
M205 X2 Y2
G1 F1200 X141.497 Y110.95 E43.30254
M205 X10 Y10
G0 F1440 X140.931 Y110.95
M205 X2 Y2
G1 F1200 X126.548 Y96.567 E44.11438
M205 X10 Y10
G0 F1440 X126.548 Y97.133
M205 X2 Y2
G1 F1200 X140.365 Y110.95 E44.89427
M205 X10 Y10
G0 F1440 X139.799 Y110.95
M205 X2 Y2
G1 F1200 X126.548 Y97.698 E45.64225
M205 X10 Y10
G0 F1440 X126.548 Y98.264
M205 X2 Y2
G1 F1200 X139.234 Y110.95 E46.3583
M205 X10 Y10
G0 F1440 X138.668 Y110.95
M205 X2 Y2
G1 F1200 X126.548 Y98.83 E47.0424
M205 X10 Y10
G0 F1440 X126.548 Y99.395
M205 X2 Y2
G1 F1200 X138.102 Y110.95 E47.69459
M205 X10 Y10
G0 F1440 X137.537 Y110.95
M205 X2 Y2
G1 F1200 X126.548 Y99.961 E48.31486
M205 X10 Y10
G0 F1440 X126.548 Y100.527
M205 X2 Y2
G1 F1200 X136.971 Y110.95 E48.90318
M205 X10 Y10
G0 F1440 X136.405 Y110.95
M205 X2 Y2
G1 F1200 X126.548 Y101.092 E49.45958
M205 X10 Y10
G0 F1440 X126.548 Y101.658
M205 X2 Y2
G1 F1200 X135.84 Y110.95 E49.98406
M205 X10 Y10
G0 F1440 X135.274 Y110.95
M205 X2 Y2
G1 F1200 X126.548 Y102.224 E50.47659
M205 X10 Y10
G0 F1440 X126.548 Y102.789
M205 X2 Y2
G1 F1200 X134.708 Y110.95 E50.9372
M205 X10 Y10
G0 F1440 X134.143 Y110.95
M205 X2 Y2
G1 F1200 X126.548 Y103.355 E51.3659
M205 X10 Y10
G0 F1440 X126.548 Y103.921
M205 X2 Y2
G1 F1200 X133.577 Y110.95 E51.76265
M205 X10 Y10
G0 F1440 X133.011 Y110.95
M205 X2 Y2
G1 F1200 X126.548 Y104.487 E52.12744
M205 X10 Y10
G0 F1440 X126.548 Y105.052
M205 X2 Y2
G1 F1200 X132.446 Y110.95 E52.46035
M205 X10 Y10
G0 F1440 X131.88 Y110.95
M205 X2 Y2
G1 F1200 X126.548 Y105.618 E52.76131
M205 X10 Y10
G0 F1440 X126.548 Y106.184
M205 X2 Y2
G1 F1200 X131.314 Y110.95 E53.03033
M205 X10 Y10
G0 F1440 X130.748 Y110.95
M205 X2 Y2
G1 F1200 X126.548 Y106.749 E53.26742
M205 X10 Y10
G0 F1440 X126.548 Y107.315
M205 X2 Y2
G1 F1200 X130.183 Y110.95 E53.4726
M205 X10 Y10
G0 F1440 X129.617 Y110.95
M205 X2 Y2
G1 F1200 X126.548 Y107.881 E53.64583
M205 X10 Y10
G0 F1440 X126.548 Y108.446
M205 X2 Y2
G1 F1200 X129.051 Y110.95 E53.78713
M205 X10 Y10
G0 F1440 X128.486 Y110.95
M205 X2 Y2
G1 F1200 X126.548 Y109.012 E53.89652
M205 X10 Y10
G0 F1440 X126.548 Y109.578
M205 X2 Y2
G1 F1200 X127.92 Y110.95 E53.97396
M205 X10 Y10
G0 F1440 X127.354 Y110.95
M205 X2 Y2
G1 F1200 X126.548 Y110.143 E54.01949
M205 X10 Y10
G0 F1440 X126.548 Y110.709
M205 X2 Y2
G1 F1200 X126.789 Y110.95 E54.03309
M205 X10 Y10
;MESH:NONMESH
G0 F600 X126.789 Y110.95 Z0.36
G0 F1440 X144 Y111.5
;TIME_ELAPSED:91.293802
;LAYER:1
M106 S255
M205 X2.5 Y2.5
;TYPE:WALL-INNER
;MESH:xyzCalibration_cube.stl
G1 F1500 X126 Y111.5 E54.3923
G1 X126 Y93.5 E54.75151
G1 X144 Y93.5 E55.11072
G1 X144 Y111.5 E55.46993
M204 S334
M205 X20 Y20
G0 F2520 X144.4 Y111.9
M204 S167
M205 X2.5 Y2.5
G1 F1500 X125.6 Y111.9 E55.8451
G1 X125.6 Y93.1 E56.22028
G1 X144.4 Y93.1 E56.59545
G1 X144.4 Y111.9 E56.97062
M204 S334
M205 X20 Y20
G0 F2520 X144.8 Y112.3
M204 S167
M205 X2 Y2
;TYPE:WALL-OUTER
G1 F1200 X125.2 Y112.3 E57.36176
G1 X125.2 Y92.7 E57.7529
G1 X144.8 Y92.7 E58.14404
G1 X144.8 Y112.3 E58.53518
M204 S334
M205 X20 Y20
G0 F2520 X144.6 Y112.3
G0 X144.33 Y111.83
G0 X143.61 Y111.11
M204 S167
M205 X2 Y2
;TYPE:SKIN
G1 F1470 X126.39 Y111.11 E58.87883
G1 X126.39 Y93.89 E59.22247
G1 X143.61 Y93.89 E59.56611
G1 X143.61 Y111.11 E59.90976
M204 S334
M205 X20 Y20
G0 F2520 X143.448 Y110.544
M204 S167
M205 X2 Y2
G1 F1470 X143.042 Y110.95 E59.92121
M204 S334
M205 X20 Y20
G0 F2520 X142.477 Y110.95
M204 S167
M205 X2 Y2
G1 F1470 X143.448 Y109.978 E59.94863
M204 S334
M205 X20 Y20
G0 F2520 X143.448 Y109.412
M204 S167
M205 X2 Y2
G1 F1470 X141.911 Y110.95 E59.99202
M204 S334
M205 X20 Y20
G0 F2520 X141.345 Y110.95
M204 S167
M205 X2 Y2
G1 F1470 X143.448 Y108.847 E60.05138
M204 S334
M205 X20 Y20
G0 F2520 X143.448 Y108.281
M204 S167
M205 X2 Y2
G1 F1470 X140.78 Y110.95 E60.12669
M204 S334
M205 X20 Y20
G0 F2520 X140.214 Y110.95
M204 S167
M205 X2 Y2
G1 F1470 X143.448 Y107.715 E60.21797
M204 S334
M205 X20 Y20
G0 F2520 X143.448 Y107.15
M204 S167
M205 X2 Y2
G1 F1470 X139.648 Y110.95 E60.32521
M204 S334
M205 X20 Y20
G0 F2520 X139.082 Y110.95
M204 S167
M205 X2 Y2
G1 F1470 X143.448 Y106.584 E60.44843
M204 S334
M205 X20 Y20
G0 F2520 X143.448 Y106.018
M204 S167
M205 X2 Y2
G1 F1470 X138.517 Y110.95 E60.58761
M204 S334
M205 X20 Y20
G0 F2520 X137.951 Y110.95
M204 S167
M205 X2 Y2
G1 F1470 X143.448 Y105.452 E60.74276
M204 S334
M205 X20 Y20
G0 F2520 X143.448 Y104.887
M204 S167
M205 X2 Y2
G1 F1470 X137.385 Y110.95 E60.91387
M204 S334
M205 X20 Y20
G0 F2520 X136.82 Y110.95
M204 S167
M205 X2 Y2
G1 F1470 X143.448 Y104.321 E61.10094
M204 S334
M205 X20 Y20
G0 F2520 X143.448 Y103.755
M204 S167
M205 X2 Y2
G1 F1470 X136.254 Y110.95 E61.30399
M204 S334
M205 X20 Y20
G0 F2520 X135.688 Y110.95
M204 S167
M205 X2 Y2
G1 F1470 X143.448 Y103.19 E61.52299
M204 S334
M205 X20 Y20
G0 F2520 X143.448 Y102.624
M204 S167
M205 X2 Y2
G1 F1470 X135.123 Y110.95 E61.75796
M204 S334
M205 X20 Y20
G0 F2520 X134.557 Y110.95
M204 S167
M205 X2 Y2
G1 F1470 X143.448 Y102.058 E62.00889
M204 S334
M205 X20 Y20
G0 F2520 X143.448 Y101.493
M204 S167
M205 X2 Y2
G1 F1470 X133.991 Y110.95 E62.27579
M204 S334
M205 X20 Y20
G0 F2520 X133.426 Y110.95
M204 S167
M205 X2 Y2
G1 F1470 X143.448 Y100.927 E62.55865
M204 S334
M205 X20 Y20
G0 F2520 X143.448 Y100.361
M204 S167
M205 X2 Y2
G1 F1470 X132.86 Y110.95 E62.85748
M204 S334
M205 X20 Y20
G0 F2520 X132.294 Y110.95
M204 S167
M205 X2 Y2
G1 F1470 X143.448 Y99.796 E63.17227
M204 S334
M205 X20 Y20
G0 F2520 X143.448 Y99.23
M204 S167
M205 X2 Y2
G1 F1470 X131.729 Y110.95 E63.50302
M204 S334
M205 X20 Y20
G0 F2520 X131.163 Y110.95
M204 S167
M205 X2 Y2
G1 F1470 X143.448 Y98.664 E63.84974
M204 S334
M205 X20 Y20
G0 F2520 X143.448 Y98.099
M204 S167
M205 X2 Y2
G1 F1470 X130.597 Y110.95 E64.21242
M204 S334
M205 X20 Y20
G0 F2520 X130.031 Y110.95
M204 S167
M205 X2 Y2
G1 F1470 X143.448 Y97.533 E64.59108
M204 S334
M205 X20 Y20
G0 F2520 X143.448 Y96.967
M204 S167
M205 X2 Y2
G1 F1470 X129.466 Y110.95 E64.9857
M204 S334
M205 X20 Y20
G0 F2520 X128.9 Y110.95
M204 S167
M205 X2 Y2
G1 F1470 X143.448 Y96.401 E65.39629
M204 S334
