;FLAVOR:Marlin
;TIME:2347
;Filament used: 0.862096m
;Layer height: 0.12
;MINX:85.001
;MINY:89
;MINZ:0.12
;MAXX:134.999
;MAXY:131
;MAXZ:15
;Generated with Cura_SteamEngine 4.11.0
M140 S60
M105
M190 S60
M104 S200
M105
M109 S200
M82 ;absolute extrusion mode
; Ender 3 Custom Start G-code
G92 E0 ; Reset Extruder
G28 ; Home all axes
G1 Z2.0 F3000 ; Move Z Axis up little to prevent scratching of Heat Bed
G1 X0.1 Y20 Z0.3 F5000.0 ; Move to start position
G1 X0.1 Y200.0 Z0.3 F1500.0 E15 ; Draw the first line
G1 X0.4 Y200.0 Z0.3 F5000.0 ; Move to side a little
G1 X0.4 Y20 Z0.3 F1500.0 E30 ; Draw the second line
G92 E0 ; Reset Extruder
G1 Z2.0 F3000 ; Move Z Axis up little to prevent scratching of Heat Bed
G1 X5 Y20 Z0.3 F5000.0 ; Move over to prevent blob squish
G92 E0
G92 E0
G1 F1500 E-6.5
;LAYER_COUNT:125
;LAYER:0
M107
G0 F6000 X91.6 Y94.289 Z0.12
;TYPE:SKIRT
G1 F1500 E0
G1 F1200 X91.804 Y94.092 E0.00566
G1 X92.174 Y93.747 E0.01575
G1 X92.385 Y93.557 E0.02142
G1 X92.767 Y93.226 E0.03151
G1 X92.959 Y93.065 E0.03651
G1 X93.352 Y92.746 E0.04661
G1 X93.568 Y92.577 E0.05208
G1 X93.972 Y92.272 E0.06218
G1 X94.225 Y92.089 E0.06842
G1 X94.64 Y91.801 E0.0785
G1 X94.843 Y91.665 E0.08337
G1 X95.267 Y91.39 E0.09346
G1 X95.521 Y91.232 E0.09943
G1 X95.956 Y90.973 E0.10953
G1 X96.188 Y90.84 E0.11487
G1 X96.63 Y90.597 E0.12493
G1 X96.894 Y90.459 E0.13088
G1 X97.347 Y90.232 E0.14099
G1 X97.59 Y90.115 E0.14637
G1 X98.048 Y89.905 E0.15643
G1 X98.277 Y89.804 E0.16142
G1 X98.741 Y89.609 E0.17147
G1 X99.484 Y89.34 E0.18723
G1 X100.249 Y89.148 E0.20297
G1 X101.031 Y89.034 E0.21874
G1 X101.763 Y89 E0.23337
G1 X127.199 Y89 E0.74097
G1 X127.988 Y89.04 E0.75674
G1 X128.768 Y89.159 E0.77248
G1 X129.533 Y89.357 E0.78825
G1 X130.273 Y89.631 E0.804
G1 X130.982 Y89.979 E0.81976
G1 X131.653 Y90.397 E0.83554
G1 X132.277 Y90.88 E0.85128
G1 X132.85 Y91.423 E0.86704
G1 X133.365 Y92.022 E0.8828
G1 X133.816 Y92.67 E0.89856
G1 X134.2 Y93.361 E0.91433
G1 X134.512 Y94.086 E0.93008
G1 X134.749 Y94.839 E0.94584
G1 X134.908 Y95.613 E0.96161
G1 X134.989 Y96.398 E0.97736
G1 X134.999 Y96.8 E0.98538
G1 X134.999 Y123.2 E1.51222
G1 X134.959 Y123.989 E1.52799
G1 X134.84 Y124.769 E1.54373
G1 X134.642 Y125.534 E1.5595
G1 X134.368 Y126.274 E1.57525
G1 X134.02 Y126.983 E1.59101
G1 X133.602 Y127.654 E1.60679
G1 X133.119 Y128.278 E1.62253
G1 X132.576 Y128.851 E1.63829
G1 X131.977 Y129.366 E1.65405
G1 X131.329 Y129.817 E1.66981
G1 X130.638 Y130.201 E1.68558
G1 X129.913 Y130.513 E1.70133
G1 X129.16 Y130.75 E1.71709
G1 X128.386 Y130.909 E1.73286
G1 X127.601 Y130.99 E1.7486
G1 X127.199 Y131 E1.75663
G1 X101.763 Y131 E2.26423
G1 X100.974 Y130.96 E2.28
G1 X100.194 Y130.841 E2.29574
G1 X99.429 Y130.643 E2.31151
G1 X98.75 Y130.395 E2.32594
G1 X98.282 Y130.199 E2.33606
G1 X98.024 Y130.085 E2.34169
G1 X97.565 Y129.873 E2.35178
G1 X97.329 Y129.759 E2.35701
G1 X96.876 Y129.531 E2.36713
G1 X96.638 Y129.406 E2.3725
G1 X96.194 Y129.163 E2.3826
G1 X95.935 Y129.015 E2.38855
G1 X95.502 Y128.756 E2.39862
G1 X95.276 Y128.615 E2.40394
G1 X94.85 Y128.34 E2.41406
G1 X94.615 Y128.183 E2.4197
G1 X94.201 Y127.894 E2.42977
G1 X93.969 Y127.725 E2.4355
G1 X93.566 Y127.421 E2.44557
G1 X93.364 Y127.264 E2.45068
G1 X92.97 Y126.946 E2.46078
G1 X92.735 Y126.748 E2.46692
G1 X92.353 Y126.414 E2.47704
G1 X92.176 Y126.254 E2.4818
G1 X91.806 Y125.91 E2.49188
G1 X91.579 Y125.69 E2.49819
G1 X91.222 Y125.33 E2.50831
G1 X91.047 Y125.148 E2.51335
G1 X90.704 Y124.779 E2.5234
G1 X90.501 Y124.553 E2.52947
G1 X90.171 Y124.169 E2.53957
G1 X90.016 Y123.982 E2.54442
G1 X89.699 Y123.589 E2.55449
G1 X89.526 Y123.367 E2.56011
G1 X89.222 Y122.961 E2.57023
G1 X89.038 Y122.705 E2.57652
G1 X88.752 Y122.289 E2.5866
G1 X88.624 Y122.096 E2.59122
G1 X88.35 Y121.671 E2.60131
G1 X88.186 Y121.406 E2.60753
G1 X87.929 Y120.97 E2.61763
G1 X87.804 Y120.748 E2.62271
G1 X87.562 Y120.305 E2.63279
G1 X87.421 Y120.036 E2.63885
G1 X87.196 Y119.583 E2.64894
G1 X87.075 Y119.328 E2.65457
G1 X86.866 Y118.866 E2.66469
G1 X86.764 Y118.63 E2.66982
G1 X86.571 Y118.163 E2.67991
G1 X86.476 Y117.921 E2.6851
G1 X86.298 Y117.446 E2.69522
G1 X86.195 Y117.152 E2.70144
G1 X86.037 Y116.673 E2.7115
G1 X85.958 Y116.422 E2.71675
G1 X85.816 Y115.937 E2.72684
G1 X85.743 Y115.669 E2.73238
G1 X85.618 Y115.178 E2.74249
G1 X85.551 Y114.89 E2.74839
G1 X85.445 Y114.396 E2.75848
G1 X85.395 Y114.147 E2.76354
G1 X85.305 Y113.649 E2.77364
G1 X85.26 Y113.372 E2.77924
G1 X85.188 Y112.871 E2.78934
G1 X85.154 Y112.595 E2.79489
G1 X85.1 Y112.093 E2.80497
G1 X85.075 Y111.813 E2.81058
G1 X85.039 Y111.307 E2.8207
G1 X85.024 Y111.031 E2.82622
G1 X85.006 Y110.527 E2.83628
G1 X85.001 Y110.249 E2.84183
G1 X85.001 Y109.744 E2.85191
G1 X85.006 Y109.467 E2.85744
G1 X85.024 Y108.961 E2.86754
G1 X85.039 Y108.682 E2.87312
G1 X85.075 Y108.178 E2.8832
G1 X85.099 Y107.903 E2.88871
G1 X85.153 Y107.399 E2.89883
G1 X85.189 Y107.116 E2.90452
G1 X85.261 Y106.617 E2.91458
G1 X85.308 Y106.332 E2.92034
G1 X85.399 Y105.833 E2.93047
G1 X85.446 Y105.596 E2.93529
G1 X85.552 Y105.102 E2.94537
G1 X85.623 Y104.799 E2.95158
G1 X85.749 Y104.308 E2.9617
G1 X85.818 Y104.055 E2.96693
G1 X85.96 Y103.57 E2.97702
G1 X86.042 Y103.309 E2.98248
G1 X86.201 Y102.829 E2.99257
G1 X86.297 Y102.557 E2.99832
G1 X86.473 Y102.085 E3.00837
G1 X86.576 Y101.823 E3.01399
G1 X86.77 Y101.355 E3.0241
G1 X86.879 Y101.103 E3.02958
G1 X87.089 Y100.643 E3.03967
G1 X87.205 Y100.4 E3.04505
G1 X87.431 Y99.947 E3.05515
G1 X87.556 Y99.708 E3.06053
G1 X87.797 Y99.264 E3.07061
G1 X87.946 Y99.001 E3.07665
G1 X88.205 Y98.565 E3.08677
G1 X88.341 Y98.344 E3.09194
G1 X88.613 Y97.919 E3.10201
G1 X88.77 Y97.684 E3.10765
G1 X89.058 Y97.268 E3.11775
G1 X89.225 Y97.035 E3.12347
G1 X89.528 Y96.63 E3.13357
G1 X89.691 Y96.421 E3.13886
G1 X90.008 Y96.026 E3.14896
G1 X90.196 Y95.8 E3.15483
G1 X90.527 Y95.418 E3.16492
G1 X90.702 Y95.223 E3.17014
G1 X91.046 Y94.852 E3.18024
G1 X91.243 Y94.647 E3.18591
G1 X91.6 Y94.289 E3.196
G0 F6000 X91.883 Y94.572
G1 F1200 X92.076 Y94.385 E3.20137
G1 X92.446 Y94.04 E3.21146
G1 X92.647 Y93.859 E3.21686
G1 X93.029 Y93.528 E3.22695
G1 X93.211 Y93.376 E3.23168
G1 X93.604 Y93.057 E3.24178
G1 X93.809 Y92.896 E3.24698
G1 X94.213 Y92.591 E3.25708
G1 X94.453 Y92.418 E3.26299
G1 X94.868 Y92.13 E3.27307
G1 X95.06 Y92.001 E3.27769
G1 X95.484 Y91.726 E3.28777
G1 X95.725 Y91.576 E3.29344
G1 X96.16 Y91.317 E3.30354
G1 X96.381 Y91.19 E3.30863
G1 X96.823 Y90.947 E3.31869
G1 X97.073 Y90.816 E3.32432
G1 X97.526 Y90.589 E3.33443
G1 X97.757 Y90.478 E3.33955
G1 X98.215 Y90.268 E3.3496
G1 X98.432 Y90.173 E3.35433
G1 X98.896 Y89.978 E3.36438
G1 X99.62 Y89.717 E3.37973
G1 X100.366 Y89.533 E3.39507
G1 X101.128 Y89.427 E3.41042
G1 X101.763 Y89.4 E3.4231
G1 X127.199 Y89.4 E3.93071
G1 X127.967 Y89.44 E3.94605
G1 X128.727 Y89.559 E3.96141
G1 X129.47 Y89.757 E3.97675
G1 X130.189 Y90.031 E3.9921
G1 X130.875 Y90.378 E4.00745
G1 X131.522 Y90.794 E4.0228
G1 X132.122 Y91.275 E4.03814
G1 X132.669 Y91.816 E4.0535
G1 X133.157 Y92.411 E4.06885
G1 X133.58 Y93.053 E4.0842
G1 X133.935 Y93.736 E4.09956
G1 X134.216 Y94.451 E4.11489
G1 X134.422 Y95.193 E4.13026
G1 X134.55 Y95.951 E4.1456
G1 X134.599 Y96.8 E4.16257
G1 X134.599 Y123.2 E4.68941
G1 X134.559 Y123.968 E4.70475
G1 X134.44 Y124.728 E4.72011
G1 X134.242 Y125.471 E4.73545
G1 X133.968 Y126.19 E4.75081
G1 X133.621 Y126.876 E4.76615
G1 X133.205 Y127.523 E4.7815
G1 X132.724 Y128.123 E4.79684
G1 X132.183 Y128.67 E4.8122
G1 X131.588 Y129.158 E4.82755
G1 X130.946 Y129.581 E4.8429
G1 X130.263 Y129.936 E4.85826
G1 X129.548 Y130.217 E4.87359
G1 X128.806 Y130.423 E4.88896
G1 X128.048 Y130.551 E4.9043
G1 X127.199 Y130.6 E4.92127
G1 X101.763 Y130.6 E5.42887
G1 X100.995 Y130.56 E5.44422
G1 X100.235 Y130.441 E5.45957
G1 X99.492 Y130.243 E5.47491
G1 X98.904 Y130.026 E5.48742
G1 X98.436 Y129.83 E5.49755
G1 X98.192 Y129.722 E5.50287
G1 X97.733 Y129.51 E5.51296
G1 X97.509 Y129.402 E5.51792
G1 X97.056 Y129.174 E5.52804
G1 X96.83 Y129.055 E5.53314
G1 X96.386 Y128.812 E5.54324
G1 X96.14 Y128.672 E5.54889
G1 X95.707 Y128.413 E5.55896
G1 X95.493 Y128.279 E5.564
G1 X95.067 Y128.004 E5.57412
G1 X94.844 Y127.855 E5.57947
G1 X94.43 Y127.566 E5.58955
G1 X94.21 Y127.406 E5.59497
G1 X93.807 Y127.102 E5.60505
G1 X93.615 Y126.952 E5.60991
G1 X93.221 Y126.634 E5.62001
G1 X92.998 Y126.447 E5.62582
G1 X92.616 Y126.113 E5.63595
G1 X92.448 Y125.962 E5.64046
G1 X92.078 Y125.618 E5.65054
G1 X91.863 Y125.409 E5.65652
G1 X91.506 Y125.049 E5.66664
G1 X91.34 Y124.876 E5.67142
G1 X90.997 Y124.507 E5.68148
G1 X90.805 Y124.292 E5.68723
G1 X90.475 Y123.908 E5.69733
G1 X90.327 Y123.731 E5.70194
G1 X90.01 Y123.338 E5.71201
G1 X89.847 Y123.127 E5.71734
G1 X89.543 Y122.721 E5.72746
G1 X89.368 Y122.478 E5.73343
G1 X89.082 Y122.062 E5.74351
G1 X88.961 Y121.88 E5.74787
G1 X88.687 Y121.455 E5.75796
G1 X88.531 Y121.203 E5.76387
G1 X88.274 Y120.767 E5.77397
G1 X88.155 Y120.557 E5.77879
G1 X87.913 Y120.114 E5.78887
G1 X87.779 Y119.858 E5.79463
G1 X87.554 Y119.405 E5.80473
G1 X87.44 Y119.163 E5.81006
G1 X87.231 Y118.701 E5.82018
G1 X87.134 Y118.477 E5.82505
G1 X86.941 Y118.01 E5.83514
G1 X86.851 Y117.781 E5.84005
G1 X86.673 Y117.306 E5.85017
G1 X86.574 Y117.027 E5.85608
G1 X86.416 Y116.548 E5.86614
G1 X86.342 Y116.309 E5.87114
G1 X86.2 Y115.824 E5.88122
G1 X86.131 Y115.571 E5.88646
G1 X86.006 Y115.08 E5.89657
G1 X85.942 Y114.807 E5.90216
G1 X85.836 Y114.313 E5.91225
G1 X85.789 Y114.076 E5.91707
G1 X85.699 Y113.578 E5.92717
G1 X85.656 Y113.315 E5.93248
G1 X85.584 Y112.814 E5.94259
G1 X85.551 Y112.552 E5.94785
G1 X85.497 Y112.05 E5.95793
G1 X85.474 Y111.784 E5.96326
G1 X85.438 Y111.278 E5.97338
G1 X85.424 Y111.017 E5.9786
G1 X85.406 Y110.513 E5.98866
G1 X85.401 Y110.249 E5.99393
G1 X85.401 Y109.744 E6.00401
G1 X85.406 Y109.481 E6.00926
G1 X85.424 Y108.975 E6.01936
G1 X85.438 Y108.711 E6.02464
G1 X85.474 Y108.207 E6.03472
G1 X85.497 Y107.946 E6.03995
G1 X85.551 Y107.442 E6.05007
G1 X85.585 Y107.173 E6.05548
G1 X85.657 Y106.674 E6.06554
G1 X85.701 Y106.403 E6.07102
G1 X85.792 Y105.904 E6.08114
G1 X85.837 Y105.679 E6.08572
G1 X85.943 Y105.185 E6.0958
G1 X86.01 Y104.899 E6.10166
G1 X86.136 Y104.408 E6.11178
G1 X86.202 Y104.168 E6.11675
G1 X86.344 Y103.683 E6.12683
G1 X86.421 Y103.435 E6.13201
G1 X86.58 Y102.955 E6.1421
G1 X86.671 Y102.697 E6.14756
G1 X86.847 Y102.225 E6.15762
G1 X86.945 Y101.976 E6.16296
G1 X87.139 Y101.508 E6.17307
G1 X87.243 Y101.269 E6.17827
G1 X87.453 Y100.809 E6.18836
G1 X87.563 Y100.578 E6.19347
G1 X87.789 Y100.125 E6.20357
G1 X87.907 Y99.899 E6.20866
G1 X88.148 Y99.455 E6.21874
G1 X88.29 Y99.206 E6.22446
G1 X88.549 Y98.77 E6.23458
G1 X88.678 Y98.56 E6.2395
G1 X88.95 Y98.135 E6.24957
G1 X89.099 Y97.912 E6.25492
G1 X89.387 Y97.496 E6.26502
G1 X89.546 Y97.275 E6.27045
G1 X89.849 Y96.87 E6.28054
G1 X90.003 Y96.671 E6.28556
G1 X90.32 Y96.276 E6.29567
G1 X90.498 Y96.062 E6.30123
G1 X90.829 Y95.68 E6.31131
G1 X90.996 Y95.495 E6.31629
G1 X91.34 Y95.124 E6.32638
G1 X91.526 Y94.93 E6.33175
G1 X91.883 Y94.572 E6.34184
G0 F6000 X92.166 Y94.854
G1 F1200 X92.349 Y94.677 E6.34692
G1 X92.719 Y94.332 E6.35701
G1 X92.909 Y94.162 E6.3621
G1 X93.291 Y93.831 E6.37219
G1 X93.463 Y93.686 E6.37668
G1 X93.856 Y93.367 E6.38678
G1 X94.05 Y93.215 E6.3917
G1 X94.454 Y92.91 E6.4018
G1 X94.681 Y92.746 E6.40739
G1 X95.096 Y92.458 E6.41747
G1 X95.278 Y92.336 E6.42184
G1 X95.702 Y92.061 E6.43192
G1 X95.93 Y91.919 E6.43728
G1 X96.365 Y91.66 E6.44739
G1 X96.574 Y91.541 E6.45219
G1 X97.016 Y91.298 E6.46225
G1 X97.252 Y91.174 E6.46757
G1 X97.705 Y90.947 E6.47769
G1 X97.923 Y90.842 E6.48251
G1 X98.381 Y90.632 E6.49257
G1 X98.587 Y90.542 E6.49705
G1 X99.051 Y90.347 E6.5071
G1 X99.755 Y90.094 E6.52203
G1 X100.482 Y89.918 E6.53695
G1 X101.224 Y89.821 E6.55189
G1 X101.763 Y89.8 E6.56265
G1 X127.199 Y89.8 E7.07026
G1 X127.946 Y89.84 E7.08518
G1 X128.684 Y89.959 E7.1001
G1 X129.406 Y90.157 E7.11504
G1 X130.102 Y90.43 E7.12996
G1 X130.765 Y90.777 E7.1449
G1 X131.388 Y91.192 E7.15983
G1 X131.962 Y91.671 E7.17475
G1 X132.483 Y92.208 E7.18968
G1 X132.942 Y92.798 E7.2046
G1 X133.337 Y93.434 E7.21954
G1 X133.661 Y94.108 E7.23447
G1 X133.911 Y94.813 E7.24939
G1 X134.085 Y95.541 E7.26433
G1 X134.18 Y96.283 E7.27926
G1 X134.199 Y96.8 E7.28958
G1 X134.199 Y123.2 E7.81642
G1 X134.159 Y123.947 E7.83135
G1 X134.04 Y124.685 E7.84627
G1 X133.842 Y125.407 E7.86121
G1 X133.569 Y126.103 E7.87613
G1 X133.222 Y126.766 E7.89106
G1 X132.807 Y127.389 E7.906
G1 X132.328 Y127.963 E7.92092
G1 X131.791 Y128.484 E7.93585
G1 X131.201 Y128.943 E7.95077
G1 X130.565 Y129.338 E7.96571
G1 X129.891 Y129.662 E7.98063
G1 X129.186 Y129.912 E7.99556
G1 X128.458 Y130.086 E8.0105
G1 X127.716 Y130.181 E8.02543
G1 X127.199 Y130.2 E8.03575
G1 X101.763 Y130.2 E8.54336
G1 X101.016 Y130.16 E8.55828
G1 X100.278 Y130.041 E8.5732
G1 X99.556 Y129.843 E8.58814
G1 X99.059 Y129.657 E8.59873
G1 X98.591 Y129.461 E8.60886
G1 X98.36 Y129.359 E8.6139
G1 X97.901 Y129.147 E8.62399
G1 X97.689 Y129.045 E8.62868
G1 X97.236 Y128.817 E8.6388
G1 X97.022 Y128.705 E8.64362
G1 X96.578 Y128.462 E8.65372
G1 X96.346 Y128.328 E8.65907
G1 X95.913 Y128.069 E8.66914
G1 X95.71 Y127.943 E8.67391
G1 X95.284 Y127.668 E8.68402
G1 X95.073 Y127.527 E8.68909
G1 X94.659 Y127.238 E8.69916
G1 X94.45 Y127.086 E8.70432
G1 X94.047 Y126.782 E8.7144
G1 X93.867 Y126.641 E8.71896
G1 X93.473 Y126.323 E8.72906
G1 X93.261 Y126.146 E8.73457
G1 X92.879 Y125.812 E8.7447
G1 X92.721 Y125.669 E8.74895
G1 X92.351 Y125.325 E8.75904
G1 X92.147 Y125.127 E8.76471
G1 X91.79 Y124.767 E8.77483
G1 X91.633 Y124.604 E8.77934
G1 X91.29 Y124.235 E8.7894
G1 X91.108 Y124.031 E8.79485
G1 X90.778 Y123.647 E8.80496
G1 X90.639 Y123.48 E8.80929
G1 X90.322 Y123.087 E8.81937
G1 X90.167 Y122.888 E8.8244
G1 X89.863 Y122.482 E8.83452
G1 X89.698 Y122.252 E8.84017
G1 X89.412 Y121.836 E8.85025
G1 X89.297 Y121.663 E8.85439
G1 X89.023 Y121.238 E8.86448
G1 X88.876 Y121 E8.87007
G1 X88.619 Y120.564 E8.88017
G1 X88.506 Y120.365 E8.88473
G1 X88.264 Y119.922 E8.89481
G1 X88.138 Y119.68 E8.90025
G1 X87.913 Y119.227 E8.91035
G1 X87.804 Y118.998 E8.91541
G1 X87.595 Y118.536 E8.92553
G1 X87.504 Y118.325 E8.93011
G1 X87.311 Y117.858 E8.9402
G1 X87.225 Y117.64 E8.94487
G1 X87.047 Y117.165 E8.95499
G1 X86.954 Y116.902 E8.96056
G1 X86.796 Y116.423 E8.97063
G1 X86.726 Y116.197 E8.97535
G1 X86.584 Y115.712 E8.98543
G1 X86.518 Y115.472 E8.9904
G1 X86.393 Y114.981 E9.00051
G1 X86.333 Y114.723 E9.0058
G1 X86.227 Y114.229 E9.01588
G1 X86.183 Y114.005 E9.02044
G1 X86.093 Y113.507 E9.03054
G1 X86.052 Y113.258 E9.03557
G1 X85.98 Y112.757 E9.04567
G1 X85.949 Y112.51 E9.05064
G1 X85.895 Y112.008 E9.06072
G1 X85.873 Y111.756 E9.06576
G1 X85.837 Y111.25 E9.07589
G1 X85.823 Y111.003 E9.08082
G1 X85.805 Y110.499 E9.09089
G1 X85.801 Y110.249 E9.09588
G1 X85.801 Y109.744 E9.10596
G1 X85.805 Y109.495 E9.11093
G1 X85.823 Y108.989 E9.12103
G1 X85.837 Y108.739 E9.12603
G1 X85.873 Y108.235 E9.13611
G1 X85.895 Y107.988 E9.14106
G1 X85.949 Y107.484 E9.15117
G1 X85.981 Y107.23 E9.15628
G1 X86.053 Y106.731 E9.16634
G1 X86.095 Y106.475 E9.17152
G1 X86.186 Y105.976 E9.18164
G1 X86.228 Y105.763 E9.18598
G1 X86.334 Y105.269 E9.19606
G1 X86.398 Y104.998 E9.20162
G1 X86.524 Y104.507 E9.21173
G1 X86.586 Y104.28 E9.21643
G1 X86.728 Y103.795 E9.22651
G1 X86.801 Y103.561 E9.2314
G1 X86.96 Y103.081 E9.24149
G1 X87.046 Y102.836 E9.24668
G1 X87.222 Y102.364 E9.25673
G1 X87.315 Y102.129 E9.26177
G1 X87.509 Y101.661 E9.27188
G1 X87.607 Y101.435 E9.2768
G1 X87.817 Y100.975 E9.28689
G1 X87.921 Y100.757 E9.29171
G1 X88.147 Y100.304 E9.30181
G1 X88.259 Y100.09 E9.30663
G1 X88.5 Y99.646 E9.31671
G1 X88.634 Y99.41 E9.32213
G1 X88.893 Y98.974 E9.33225
G1 X89.015 Y98.776 E9.33689
G1 X89.287 Y98.351 E9.34696
G1 X89.428 Y98.14 E9.35203
G1 X89.716 Y97.724 E9.36212
G1 X89.866 Y97.515 E9.36726
G1 X90.169 Y97.11 E9.37735
G1 X90.315 Y96.922 E9.3821
G1 X90.632 Y96.527 E9.39221
G1 X90.801 Y96.324 E9.39748
G1 X91.132 Y95.942 E9.40757
G1 X91.289 Y95.767 E9.41226
G1 X91.633 Y95.396 E9.42235
G1 X91.809 Y95.212 E9.42744
G1 X92.166 Y94.854 E9.43753
G0 F6000 X92.45 Y95.137
G1 F1200 X92.622 Y94.97 E9.44231
G1 X92.992 Y94.625 E9.4524
G1 X93.171 Y94.464 E9.45721
G1 X93.553 Y94.133 E9.4673
