;FLAVOR:Marlin
;TIME:1869
;Filament used: 1.44012m
;Layer height: 0.2
;MINX:121
;MINY:88.5
;MINZ:0.3
;MAXX:149
;MAXY:116.5
;MAXZ:19.9
;Generated with Cura_SteamEngine 4.11.0
M140 S60
M105
M190 S60
M104 S210
M105
M109 S210
M82 ;absolute extrusion mode
G21 ;metric values
G90 ;absolute positioning
M82 ;set extruder to absolute mode
M107 ;start with the fan off
G28 X0 Y0 ;move X/Y to min endstops
G28 Z0 ;move Z to min endstops
G1 Z15.0 F60 ;move the platform down 15mm
G92 E0 ;zero the extruded length
G1 F200 E3 ;extrude 3mm of feed stock
G92 E0 ;zero the extruded length again
G1 F60
M117 Printing...
G5
G92 E0
G92 E0
G1 F2400 E-3
;LAYER_COUNT:100
;LAYER:0
M107
M204 S300
M205 X8.18 Y8.18
G0 F1800 X121.662 Y90.319 Z0.3
M205 X3 Y3
;TYPE:SKIRT
G1 F2400 E0
G1 F1200 X122.004 Y89.869 E0.0282
G1 X122.406 Y89.472 E0.05639
G1 X122.86 Y89.135 E0.08459
G1 X123.357 Y88.866 E0.11279
G1 X123.887 Y88.669 E0.141
G1 X124.44 Y88.55 E0.16922
G1 X125.218 Y88.502 E0.20811
G1 X125.33 Y88.5 E0.2137
G1 X144.35 Y88.5 E1.16261
G1 X145.048 Y88.51 E1.19743
G1 X145.612 Y88.558 E1.22567
G1 X146.162 Y88.685 E1.25384
G1 X146.69 Y88.889 E1.28208
G1 X147.184 Y89.164 E1.31028
G1 X147.633 Y89.507 E1.33847
G1 X148.03 Y89.909 E1.36666
G1 X148.367 Y90.364 E1.39491
G1 X148.635 Y90.861 E1.42308
G1 X148.831 Y91.391 E1.45127
G1 X148.951 Y91.944 E1.4795
G1 X148.998 Y92.718 E1.51819
G1 X149 Y92.83 E1.52378
G1 X149 Y111.814 E2.47089
G1 X148.991 Y112.541 E2.50716
G1 X148.944 Y113.104 E2.53535
G1 X148.818 Y113.655 E2.56355
G1 X148.616 Y114.183 E2.59175
G1 X148.341 Y114.677 E2.61996
G1 X147.999 Y115.127 E2.64816
G1 X147.597 Y115.525 E2.67638
G1 X147.144 Y115.862 E2.70455
G1 X146.647 Y116.132 E2.73277
G1 X146.117 Y116.329 E2.76098
G1 X145.565 Y116.45 E2.78917
G1 X144.782 Y116.498 E2.82831
G1 X144.67 Y116.5 E2.8339
G1 X125.655 Y116.5 E3.78256
G1 X124.957 Y116.491 E3.81739
G1 X124.394 Y116.443 E3.84558
G1 X123.843 Y116.317 E3.87377
G1 X123.315 Y116.115 E3.90198
G1 X122.821 Y115.84 E3.93019
G1 X122.371 Y115.498 E3.95838
G1 X121.973 Y115.096 E3.98661
G1 X121.637 Y114.642 E4.01479
G1 X121.367 Y114.145 E4.043
G1 X121.17 Y113.615 E4.07121
G1 X121.05 Y113.063 E4.0994
G1 X121.001 Y112.266 E4.13923
G1 X121 Y93.12 E5.09443
G1 X121.009 Y92.455 E5.12761
G1 X121.057 Y91.892 E5.1558
G1 X121.183 Y91.341 E5.184
G1 X121.386 Y90.813 E5.21222
G1 X121.662 Y90.319 E5.24045
M205 X8.18 Y8.18
G0 F1800 X122.058 Y90.447
M205 X3 Y3
G1 F1200 X122.397 Y90.031 E5.26723
G1 X122.794 Y89.671 E5.29396
G1 X123.241 Y89.373 E5.32077
G1 X123.726 Y89.145 E5.3475
G1 X124.24 Y88.992 E5.37426
G1 X124.908 Y88.91 E5.40784
G1 X125.33 Y88.9 E5.42889
G1 X144.345 Y88.9 E6.37756
G1 X145.043 Y88.91 E6.41238
G1 X145.577 Y88.958 E6.43913
G1 X146.098 Y89.084 E6.46587
G1 X146.595 Y89.287 E6.49266
G1 X147.056 Y89.561 E6.51941
G1 X147.471 Y89.9 E6.54615
G1 X147.831 Y90.298 E6.57292
G1 X148.128 Y90.744 E6.59966
G1 X148.356 Y91.23 E6.62644
G1 X148.508 Y91.744 E6.65318
G1 X148.59 Y92.409 E6.68661
G1 X148.6 Y92.83 E6.70762
G1 X148.6 Y111.809 E7.65448
G1 X148.591 Y112.536 E7.69076
G1 X148.544 Y113.07 E7.7175
G1 X148.419 Y113.591 E7.74423
G1 X148.217 Y114.088 E7.771
G1 X147.944 Y114.55 E7.79777
G1 X147.606 Y114.966 E7.82451
G1 X147.209 Y115.327 E7.85128
G1 X146.763 Y115.625 E7.87804
G1 X146.278 Y115.853 E7.90478
G1 X145.764 Y116.007 E7.93155
G1 X145.092 Y116.09 E7.96533
G1 X144.67 Y116.1 E7.98639
G1 X125.661 Y116.1 E8.93475
G1 X124.963 Y116.091 E8.96958
G1 X124.428 Y116.044 E8.99637
G1 X123.907 Y115.918 E9.02311
G1 X123.41 Y115.716 E9.04988
G1 X122.949 Y115.443 E9.07661
G1 X122.533 Y115.104 E9.10338
G1 X122.172 Y114.708 E9.13012
G1 X121.874 Y114.262 E9.15688
G1 X121.646 Y113.776 E9.18366
G1 X121.493 Y113.262 E9.21041
G1 X121.41 Y112.588 E9.24429
G1 X121.4 Y112.158 E9.26575
G1 X121.4 Y93.125 E10.21531
G1 X121.409 Y92.46 E10.24849
G1 X121.457 Y91.926 E10.27524
G1 X121.583 Y91.405 E10.30198
G1 X121.785 Y90.908 E10.32875
G1 X122.058 Y90.447 E10.35548
M205 X8.18 Y8.18
G0 F1800 X122.454 Y90.582
M205 X3 Y3
G1 F1200 X122.789 Y90.204 E10.38068
G1 X123.18 Y89.883 E10.40592
G1 X123.617 Y89.628 E10.43116
G1 X124.088 Y89.444 E10.45639
G1 X124.582 Y89.338 E10.48159
G1 X125.24 Y89.301 E10.51447
G1 X144.339 Y89.3 E11.46733
G1 X145.037 Y89.31 E11.50215
G1 X145.54 Y89.357 E11.52736
G1 X146.03 Y89.483 E11.5526
G1 X146.494 Y89.685 E11.57785
G1 X146.92 Y89.957 E11.60306
G1 X147.298 Y90.292 E11.62826
G1 X147.618 Y90.683 E11.65347
G1 X147.873 Y91.12 E11.67871
G1 X148.056 Y91.591 E11.70392
G1 X148.163 Y92.085 E11.72914
G1 X148.199 Y92.74 E11.76186
G1 X148.2 Y111.804 E12.71297
G1 X148.191 Y112.531 E12.74924
G1 X148.145 Y113.034 E12.77444
G1 X148.02 Y113.524 E12.79967
G1 X147.819 Y113.988 E12.8249
G1 X147.548 Y114.415 E12.85013
G1 X147.213 Y114.794 E12.87537
G1 X146.823 Y115.115 E12.90057
G1 X146.387 Y115.371 E12.92579
G1 X145.916 Y115.554 E12.951
G1 X145.422 Y115.662 E12.97623
G1 X144.76 Y115.699 E13.00931
G1 X125.666 Y115.7 E13.96191
G1 X124.968 Y115.691 E13.99674
G1 X124.464 Y115.644 E14.02199
G1 X123.974 Y115.519 E14.04722
G1 X123.51 Y115.318 E14.07245
G1 X123.084 Y115.047 E14.09764
G1 X122.705 Y114.712 E14.12287
G1 X122.384 Y114.321 E14.14811
G1 X122.129 Y113.885 E14.17331
G1 X121.945 Y113.414 E14.19854
G1 X121.838 Y112.92 E14.22376
G1 X121.801 Y112.244 E14.25753
G1 X121.8 Y93.131 E15.21109
G1 X121.809 Y92.466 E15.24427
G1 X121.856 Y91.962 E15.26952
G1 X121.982 Y91.473 E15.29471
G1 X122.183 Y91.009 E15.31994
G1 X122.454 Y90.582 E15.34517
M205 X8.18 Y8.18
G1 F2400 E12.34517
;MESH:xyzCalibration_cube.stl
G0 F1800 X124.335 Y93.114
G0 X125.614 Y93.114
G0 X144.33 Y111.83
G1 F2400 E15.34517
G0 F1800 X144.4 Y111.9
M205 X3 Y3
;TYPE:WALL-INNER
G1 F1200 X125.6 Y111.9 E16.28311
G1 X125.6 Y93.1 E17.22104
G1 X144.4 Y93.1 E18.15898
G1 X144.4 Y111.9 E19.09692
M205 X8.18 Y8.18
G0 F1800 X144.8 Y112.3
M205 X3 Y3
;TYPE:WALL-OUTER
G1 F1200 X125.2 Y112.3 E20.07476
G1 X125.2 Y92.7 E21.05261
G1 X144.8 Y92.7 E22.03046
G1 X144.8 Y112.3 E23.00831
M205 X8.18 Y8.18
G0 F1800 X144.6 Y112.3
G0 X144.01 Y111.51
M205 X3 Y3
;TYPE:SKIN
G1 F1200 X125.99 Y111.51 E23.90733
G1 X125.99 Y93.49 E24.80635
G1 X144.01 Y93.49 E25.70537
G1 X144.01 Y111.51 E26.60439
M205 X8.18 Y8.18
G0 F1800 X143.848 Y94.068
M205 X3 Y3
G1 F1200 X143.43 Y93.65 E26.63388
M205 X8.18 Y8.18
G0 F1800 X142.865 Y93.65
M205 X3 Y3
G1 F1200 X143.848 Y94.634 E26.70328
M205 X8.18 Y8.18
G0 F1800 X143.848 Y95.199
M205 X3 Y3
G1 F1200 X142.299 Y93.65 E26.81257
M205 X8.18 Y8.18
G0 F1800 X141.733 Y93.65
M205 X3 Y3
G1 F1200 X143.848 Y95.765 E26.96179
M205 X8.18 Y8.18
G0 F1800 X143.848 Y96.331
M205 X3 Y3
G1 F1200 X141.168 Y93.65 E27.15091
M205 X8.18 Y8.18
G0 F1800 X140.602 Y93.65
M205 X3 Y3
G1 F1200 X143.848 Y96.896 E27.37994
M205 X8.18 Y8.18
G0 F1800 X143.848 Y97.462
M205 X3 Y3
G1 F1200 X140.036 Y93.65 E27.64889
M205 X8.18 Y8.18
G0 F1800 X139.471 Y93.65
M205 X3 Y3
G1 F1200 X143.848 Y98.028 E27.95775
M205 X8.18 Y8.18
G0 F1800 X143.848 Y98.594
M205 X3 Y3
G1 F1200 X138.905 Y93.65 E28.30654
M205 X8.18 Y8.18
G0 F1800 X138.339 Y93.65
M205 X3 Y3
G1 F1200 X143.848 Y99.159 E28.69523
M205 X8.18 Y8.18
G0 F1800 X143.848 Y99.725
M205 X3 Y3
G1 F1200 X137.774 Y93.65 E29.12382
M205 X8.18 Y8.18
G0 F1800 X137.208 Y93.65
M205 X3 Y3
G1 F1200 X143.848 Y100.291 E29.59234
M205 X8.18 Y8.18
G0 F1800 X143.848 Y100.856
M205 X3 Y3
G1 F1200 X136.642 Y93.65 E30.10077
M205 X8.18 Y8.18
G0 F1800 X136.077 Y93.65
M205 X3 Y3
G1 F1200 X143.848 Y101.422 E30.64909
M205 X8.18 Y8.18
G0 F1800 X143.848 Y101.988
M205 X3 Y3
G1 F1200 X135.511 Y93.65 E31.23734
M205 X8.18 Y8.18
G0 F1800 X134.945 Y93.65
M205 X3 Y3
G1 F1200 X143.848 Y102.553 E31.8655
M205 X8.18 Y8.18
G0 F1800 X143.848 Y103.119
M205 X3 Y3
G1 F1200 X134.379 Y93.65 E32.53359
M205 X8.18 Y8.18
G0 F1800 X133.814 Y93.65
M205 X3 Y3
G1 F1200 X143.848 Y103.685 E33.24157
M205 X8.18 Y8.18
G0 F1800 X143.848 Y104.25
M205 X3 Y3
G1 F1200 X133.248 Y93.65 E33.98946
M205 X8.18 Y8.18
G0 F1800 X132.682 Y93.65
M205 X3 Y3
G1 F1200 X143.848 Y104.816 E34.77728
M205 X8.18 Y8.18
G0 F1800 X143.848 Y105.382
M205 X3 Y3
G1 F1200 X132.117 Y93.65 E35.605
M205 X8.18 Y8.18
G0 F1800 X131.551 Y93.65
M205 X3 Y3
G1 F1200 X143.848 Y105.947 E36.47262
M205 X8.18 Y8.18
G0 F1800 X143.848 Y106.513
M205 X3 Y3
G1 F1200 X130.985 Y93.65 E37.38018
M205 X8.18 Y8.18
G0 F1800 X130.42 Y93.65
M205 X3 Y3
G1 F1200 X143.848 Y107.079 E38.32763
M205 X8.18 Y8.18
G0 F1800 X143.848 Y107.644
M205 X3 Y3
G1 F1200 X129.854 Y93.65 E39.31498
M205 X8.18 Y8.18
G0 F1800 X129.288 Y93.65
M205 X3 Y3
G1 F1200 X143.848 Y108.21 E40.34227
M205 X8.18 Y8.18
G0 F1800 X143.848 Y108.776
M205 X3 Y3
G1 F1200 X128.723 Y93.65 E41.40946
M205 X8.18 Y8.18
G0 F1800 X128.157 Y93.65
M205 X3 Y3
G1 F1200 X143.848 Y109.342 E42.51658
M205 X8.18 Y8.18
G0 F1800 X143.848 Y109.907
M205 X3 Y3
G1 F1200 X127.591 Y93.65 E43.6636
M205 X8.18 Y8.18
G0 F1800 X127.026 Y93.65
M205 X3 Y3
G1 F1200 X143.848 Y110.473 E44.85051
M205 X8.18 Y8.18
G0 F1800 X143.848 Y111.039
M205 X3 Y3
G1 F1200 X126.46 Y93.65 E46.07737
M205 X8.18 Y8.18
G0 F1800 X126.149 Y93.905
M205 X3 Y3
G1 F1200 X143.593 Y111.349 E47.30813
M205 X8.18 Y8.18
G0 F1800 X143.027 Y111.349
M205 X3 Y3
G1 F1200 X126.149 Y94.47 E48.499
M205 X8.18 Y8.18
G0 F1800 X126.149 Y95.036
M205 X3 Y3
G1 F1200 X142.462 Y111.349 E49.64997
M205 X8.18 Y8.18
G0 F1800 X141.896 Y111.349
M205 X3 Y3
G1 F1200 X126.149 Y95.602 E50.76101
M205 X8.18 Y8.18
G0 F1800 X126.149 Y96.167
M205 X3 Y3
G1 F1200 X141.33 Y111.349 E51.83215
M205 X8.18 Y8.18
G0 F1800 X140.765 Y111.349
M205 X3 Y3
G1 F1200 X126.149 Y96.733 E52.86338
M205 X8.18 Y8.18
G0 F1800 X126.149 Y97.299
M205 X3 Y3
G1 F1200 X140.199 Y111.349 E53.85469
M205 X8.18 Y8.18
G0 F1800 X139.633 Y111.349
M205 X3 Y3
G1 F1200 X126.149 Y97.864 E54.80609
M205 X8.18 Y8.18
G0 F1800 X126.149 Y98.43
M205 X3 Y3
G1 F1200 X139.068 Y111.349 E55.7176
M205 X8.18 Y8.18
G0 F1800 X138.502 Y111.349
M205 X3 Y3
G1 F1200 X126.149 Y98.996 E56.58917
M205 X8.18 Y8.18
G0 F1800 X126.149 Y99.562
M205 X3 Y3
G1 F1200 X137.936 Y111.349 E57.4208
M205 X8.18 Y8.18
G0 F1800 X137.371 Y111.349
M205 X3 Y3
G1 F1200 X126.149 Y100.127 E58.21258
M205 X8.18 Y8.18
G0 F1800 X126.149 Y100.693
M205 X3 Y3
G1 F1200 X136.805 Y111.349 E58.96442
M205 X8.18 Y8.18
G0 F1800 X136.239 Y111.349
M205 X3 Y3
G1 F1200 X126.149 Y101.259 E59.67632
M205 X8.18 Y8.18
G0 F1800 X126.149 Y101.824
M205 X3 Y3
G1 F1200 X135.673 Y111.349 E60.34832
M205 X8.18 Y8.18
G0 F1800 X135.108 Y111.349
M205 X3 Y3
G1 F1200 X126.149 Y102.39 E60.98043
M205 X8.18 Y8.18
G0 F1800 X126.149 Y102.956
M205 X3 Y3
G1 F1200 X134.542 Y111.349 E61.5726
M205 X8.18 Y8.18
G0 F1800 X133.976 Y111.349
M205 X3 Y3
G1 F1200 X126.149 Y103.521 E62.12487
M205 X8.18 Y8.18
G0 F1800 X126.149 Y104.087
M205 X3 Y3
G1 F1200 X133.411 Y111.349 E62.63725
M205 X8.18 Y8.18
G0 F1800 X132.845 Y111.349
M205 X3 Y3
G1 F1200 X126.149 Y104.653 E63.10969
M205 X8.18 Y8.18
G0 F1800 X126.149 Y105.218
M205 X3 Y3
G1 F1200 X132.279 Y111.349 E63.54223
M205 X8.18 Y8.18
G0 F1800 X131.714 Y111.349
M205 X3 Y3
G1 F1200 X126.149 Y105.784 E63.93487
M205 X8.18 Y8.18
G0 F1800 X126.149 Y106.35
M205 X3 Y3
G1 F1200 X131.148 Y111.349 E64.28757
M205 X8.18 Y8.18
G0 F1800 X130.582 Y111.349
M205 X3 Y3
G1 F1200 X126.149 Y106.915 E64.60038
M205 X8.18 Y8.18
G0 F1800 X126.149 Y107.481
M205 X3 Y3
G1 F1200 X130.017 Y111.349 E64.87329
M205 X8.18 Y8.18
G0 F1800 X129.451 Y111.349
M205 X3 Y3
G1 F1200 X126.149 Y108.047 E65.10626
M205 X8.18 Y8.18
G0 F1800 X126.149 Y108.613
M205 X3 Y3
G1 F1200 X128.885 Y111.349 E65.2993
M205 X8.18 Y8.18
G0 F1800 X128.32 Y111.349
M205 X3 Y3
G1 F1200 X126.149 Y109.178 E65.45248
M205 X8.18 Y8.18
G0 F1800 X126.149 Y109.744
M205 X3 Y3
G1 F1200 X127.754 Y111.349 E65.56572
M205 X8.18 Y8.18
G0 F1800 X127.188 Y111.349
M205 X3 Y3
G1 F1200 X126.149 Y110.31 E65.63903
M205 X8.18 Y8.18
G0 F1800 X126.149 Y110.875
M205 X3 Y3
G1 F1200 X126.623 Y111.349 E65.67247
M205 X8.18 Y8.18
;MESH:NONMESH
G0 F600 X126.623 Y111.349 Z0.5
G0 F1800 X144.33 Y111.83
G0 X144.4 Y111.9
;TIME_ELAPSED:83.347853
;LAYER:1
M106 S255
M205 X4 Y4
;TYPE:WALL-INNER
;MESH:xyzCalibration_cube.stl
G1 F1650 X125.6 Y111.9 E66.29776
G1 X125.6 Y93.1 E66.92305
G1 X144.4 Y93.1 E67.54834
G1 X144.4 Y111.9 E68.17363
M204 S600
M205 X19.09 Y19.09
G0 F2700 X144.8 Y112.3
M204 S300
M205 X3 Y3
;TYPE:WALL-OUTER
G1 F1320 X125.2 Y112.3 E68.82553
G1 X125.2 Y92.7 E69.47743
G1 X144.8 Y92.7 E70.12933
G1 X144.8 Y112.3 E70.78123
M204 S600
M205 X19.09 Y19.09
G0 F2700 X144.6 Y112.3
G0 X144.01 Y111.51
M204 S300
M205 X3 Y3
;TYPE:SKIN
G1 F1290 X125.99 Y111.51 E71.38057
G1 X125.99 Y93.49 E71.97992
G1 X144.01 Y93.49 E72.57927
G1 X144.01 Y111.51 E73.17862
M204 S600
M205 X19.09 Y19.09
G0 F2700 X143.848 Y111.275
M204 S300
M205 X3 Y3
G1 F1290 X143.773 Y111.35 E73.18215
M204 S600
M205 X19.09 Y19.09
G0 F2700 X143.208 Y111.35
M204 S300
M205 X3 Y3
G1 F1290 X143.848 Y110.709 E73.21227
M204 S600
M205 X19.09 Y19.09
G0 F2700 X143.848 Y110.143
M204 S300
M205 X3 Y3
G1 F1290 X142.642 Y111.35 E73.26902
M204 S600
M205 X19.09 Y19.09
G0 F2700 X142.076 Y111.35
M204 S300
M205 X3 Y3
G1 F1290 X143.848 Y109.578 E73.35237
M204 S600
M205 X19.09 Y19.09
G0 F2700 X143.848 Y109.012
M204 S300
M205 X3 Y3
G1 F1290 X141.511 Y111.35 E73.46232
M204 S600
M205 X19.09 Y19.09
G0 F2700 X140.945 Y111.35
M204 S300
M205 X3 Y3
G1 F1290 X143.848 Y108.446 E73.59889
M204 S600
M205 X19.09 Y19.09
G0 F2700 X143.848 Y107.881
M204 S300
M205 X3 Y3
G1 F1290 X140.379 Y111.35 E73.76206
M204 S600
M205 X19.09 Y19.09
G0 F2700 X139.814 Y111.35
M204 S300
M205 X3 Y3
G1 F1290 X143.848 Y107.315 E73.95183
M204 S600
M205 X19.09 Y19.09
G0 F2700 X143.848 Y106.749
M204 S300
M205 X3 Y3
G1 F1290 X139.248 Y111.35 E74.16823
M204 S600
M205 X19.09 Y19.09
G0 F2700 X138.682 Y111.35
M204 S300
M205 X3 Y3
G1 F1290 X143.848 Y106.184 E74.41122
M204 S600
M205 X19.09 Y19.09
G0 F2700 X143.848 Y105.618
M204 S300
M205 X3 Y3
G1 F1290 X138.117 Y111.35 E74.68081
M204 S600
M205 X19.09 Y19.09
G0 F2700 X137.551 Y111.35
M204 S300
M205 X3 Y3
G1 F1290 X143.848 Y105.052 E74.97703
M204 S600
M205 X19.09 Y19.09
G0 F2700 X143.848 Y104.487
M204 S300
M205 X3 Y3
G1 F1290 X136.985 Y111.35 E75.29984
M204 S600
M205 X19.09 Y19.09
G0 F2700 X136.419 Y111.35
M204 S300
M205 X3 Y3
G1 F1290 X143.848 Y103.921 E75.64928
M204 S600
M205 X19.09 Y19.09
G0 F2700 X143.848 Y103.355
M204 S300
M205 X3 Y3
G1 F1290 X135.854 Y111.35 E76.02532
M204 S600
M205 X19.09 Y19.09
G0 F2700 X135.288 Y111.35
M204 S300
M205 X3 Y3
G1 F1290 X143.848 Y102.789 E76.42798
M204 S600
M205 X19.09 Y19.09
G0 F2700 X143.848 Y102.224
M204 S300
M205 X3 Y3
G1 F1290 X134.722 Y111.35 E76.85724
M204 S600
M205 X19.09 Y19.09
G0 F2700 X134.157 Y111.35
M204 S300
M205 X3 Y3
G1 F1290 X143.848 Y101.658 E77.31309
M204 S600
M205 X19.09 Y19.09
G0 F2700 X143.848 Y101.092
M204 S300
M205 X3 Y3
G1 F1290 X133.591 Y111.35 E77.79558
M204 S600
M205 X19.09 Y19.09
G0 F2700 X133.025 Y111.35
M204 S300
M205 X3 Y3
G1 F1290 X143.848 Y100.527 E78.30466
M204 S600
M205 X19.09 Y19.09
G0 F2700 X143.848 Y99.961
M204 S300
M205 X3 Y3
G1 F1290 X132.46 Y111.35 E78.84034
M204 S600
M205 X19.09 Y19.09
G0 F2700 X131.894 Y111.35
M204 S300
M205 X3 Y3
G1 F1290 X143.848 Y99.395 E79.40264
M204 S600
M205 X19.09 Y19.09
G0 F2700 X143.848 Y98.83
M204 S300
M205 X3 Y3
G1 F1290 X131.328 Y111.35 E79.99154
M204 S600
M205 X19.09 Y19.09
G0 F2700 X130.763 Y111.35
M204 S300
M205 X3 Y3
G1 F1290 X143.848 Y98.264 E80.60704
M204 S600
M205 X19.09 Y19.09
G0 F2700 X143.848 Y97.698
M204 S300
M205 X3 Y3
G1 F1290 X130.197 Y111.35 E81.24917
M204 S600
M205 X19.09 Y19.09
G0 F2700 X129.631 Y111.35
M204 S300
M205 X3 Y3
G1 F1290 X143.848 Y97.133 E81.91789
M204 S600
M205 X19.09 Y19.09
G0 F2700 X143.848 Y96.567
M204 S300
M205 X3 Y3
G1 F1290 X129.066 Y111.35 E82.61322
M204 S600
M205 X19.09 Y19.09
G0 F2700 X128.5 Y111.35
M204 S300
M205 X3 Y3
G1 F1290 X143.848 Y96.001 E83.33516
M204 S600
M205 X19.09 Y19.09
G0 F2700 X143.848 Y95.436
M204 S300
M205 X3 Y3
G1 F1290 X127.934 Y111.35 E84.08371
M204 S600
M205 X19.09 Y19.09
G0 F2700 X127.369 Y111.35
M204 S300
M205 X3 Y3
G1 F1290 X143.848 Y94.87 E84.85885
M204 S600
M205 X19.09 Y19.09
G0 F2700 X143.848 Y94.304
M204 S300
M205 X3 Y3
G1 F1290 X126.803 Y111.35 E85.66062
M204 S600
M205 X19.09 Y19.09
G0 F2700 X126.237 Y111.35
M204 S300
M205 X3 Y3
