;FLAVOR:Marlin
;TIME:375
;Filament used: 0.283498m
;Layer height: 0.2
;MINX:116.007
;MINY:83.513
;MINZ:0.3
;MAXX:153.986
;MAXY:121.486
;MAXZ:0.9
;Generated with Cura_SteamEngine 4.11.0
M140 S60
M105
M190 S60
M104 S210
M105
M109 S210
M82 ;absolute extrusion mode
G21 ;metric values
G90 ;absolute positioning
M82 ;set extruder to absolute mode
M107 ;start with the fan off
G28 X0 Y0 ;move X/Y to min endstops
G28 Z0 ;move Z to min endstops
G1 Z15.0 F60 ;move the platform down 15mm
G92 E0 ;zero the extruded length
G1 F200 E3 ;extrude 3mm of feed stock
G92 E0 ;zero the extruded length again
G1 F60
M117 Printing...
G5
G92 E0
G92 E0
G1 F2400 E-3
;LAYER_COUNT:5
;LAYER:0
M107
M204 S300
M205 X8.18 Y8.18
G0 F1800 X120.048 Y90.79 Z0.3
M205 X3 Y3
;TYPE:SKIRT
G1 F2400 E0
G1 F1200 X120.309 Y90.465 E0.0208
G1 X120.711 Y89.99 E0.05184
G1 X121.051 Y89.613 E0.07717
G1 X121.549 Y89.094 E0.11305
G1 X121.863 Y88.788 E0.13493
G1 X122.288 Y88.392 E0.16391
G1 X122.73 Y88.006 E0.19319
G1 X123.125 Y87.681 E0.21871
G1 X123.58 Y87.328 E0.24744
G1 X124.151 Y86.913 E0.28265
G1 X124.507 Y86.672 E0.3041
G1 X125.036 Y86.334 E0.33542
G1 X125.53 Y86.039 E0.36413
G1 X126.056 Y85.748 E0.39412
G1 X126.461 Y85.539 E0.41685
G1 X127.147 Y85.209 E0.45483
G1 X127.487 Y85.059 E0.47337
G1 X128.043 Y84.83 E0.50337
G1 X128.595 Y84.623 E0.53278
G1 X129.123 Y84.443 E0.56061
G1 X129.659 Y84.277 E0.58861
G1 X130.188 Y84.13 E0.616
G1 X130.728 Y83.999 E0.64372
G1 X131.329 Y83.87 E0.67439
G1 X131.871 Y83.771 E0.70188
G1 X132.567 Y83.667 E0.73699
G1 X132.959 Y83.622 E0.75667
G1 X133.698 Y83.556 E0.79369
G1 X134.103 Y83.533 E0.81393
G1 X134.837 Y83.513 E0.85056
G1 X135.176 Y83.513 E0.86747
G1 X135.814 Y83.53 E0.89931
G1 X136.391 Y83.564 E0.92815
G1 X136.956 Y83.614 E0.95645
G1 X137.542 Y83.684 E0.98589
G1 X138.084 Y83.765 E1.01323
G1 X138.678 Y83.872 E1.04334
G1 X139.209 Y83.984 E1.07042
G1 X139.736 Y84.112 E1.09747
G1 X140.428 Y84.304 E1.1333
G1 X140.831 Y84.43 E1.15437
G1 X141.389 Y84.62 E1.18378
G1 X141.911 Y84.816 E1.21159
G1 X142.452 Y85.037 E1.24075
G1 X142.969 Y85.268 E1.269
G1 X143.481 Y85.513 E1.29732
G1 X143.925 Y85.743 E1.32227
G1 X144.626 Y86.134 E1.36231
G1 X144.977 Y86.346 E1.38277
G1 X145.444 Y86.643 E1.41038
G1 X145.882 Y86.941 E1.43681
G1 X146.393 Y87.312 E1.46831
G1 X146.822 Y87.644 E1.49538
G1 X147.351 Y88.081 E1.52961
G1 X147.669 Y88.361 E1.55075
G1 X148.107 Y88.765 E1.58048
G1 X148.515 Y89.167 E1.60905
G1 X149.002 Y89.678 E1.64427
G1 X149.258 Y89.964 E1.66342
G1 X149.664 Y90.441 E1.69467
G1 X149.991 Y90.851 E1.72084
G1 X150.434 Y91.444 E1.75776
G1 X150.679 Y91.794 E1.77908
G1 X150.995 Y92.272 E1.80767
G1 X151.287 Y92.744 E1.83536
G1 X151.58 Y93.25 E1.86453
G1 X151.83 Y93.715 E1.89087
G1 X152.157 Y94.371 E1.92744
G1 X152.324 Y94.734 E1.94737
G1 X152.573 Y95.314 E1.97886
G1 X152.761 Y95.793 E2.00453
G1 X152.964 Y96.359 E2.03453
G1 X153.132 Y96.877 E2.0617
G1 X153.292 Y97.421 E2.08999
G1 X153.439 Y97.982 E2.11892
G1 X153.564 Y98.524 E2.14667
G1 X153.673 Y99.076 E2.17474
G1 X153.77 Y99.657 E2.20413
G1 X153.851 Y100.253 E2.23414
G1 X153.913 Y100.851 E2.26413
G1 X153.949 Y101.334 E2.2883
G1 X153.977 Y101.929 E2.31802
G1 X153.986 Y102.457 E2.34436
G1 X153.977 Y103.079 E2.3754
G1 X153.955 Y103.579 E2.40037
G1 X153.908 Y104.201 E2.43149
G1 X153.848 Y104.772 E2.46013
G1 X153.757 Y105.442 E2.49386
G1 X153.689 Y105.84 E2.51401
G1 X153.568 Y106.457 E2.54538
G1 X153.446 Y106.996 E2.57295
G1 X153.272 Y107.657 E2.60705
G1 X153.147 Y108.079 E2.62901
G1 X152.932 Y108.737 E2.66354
G1 X152.786 Y109.139 E2.68488
G1 X152.563 Y109.71 E2.71546
G1 X152.37 Y110.162 E2.73998
G1 X152.099 Y110.749 E2.77224
G1 X151.856 Y111.236 E2.79939
G1 X151.58 Y111.748 E2.82841
G1 X151.291 Y112.249 E2.85726
G1 X151.009 Y112.706 E2.88406
G1 X150.7 Y113.176 E2.91212
G1 X150.302 Y113.739 E2.94652
G1 X150.052 Y114.071 E2.96725
G1 X149.585 Y114.656 E3.0046
G1 X149.32 Y114.967 E3.02498
G1 X148.907 Y115.425 E3.05575
G1 X148.53 Y115.819 E3.08295
G1 X148.057 Y116.284 E3.11605
G1 X147.72 Y116.595 E3.13892
G1 X147.279 Y116.98 E3.16813
G1 X146.831 Y117.349 E3.19709
G1 X146.393 Y117.689 E3.22475
G1 X145.984 Y117.987 E3.25
G1 X145.441 Y118.358 E3.28281
G1 X144.982 Y118.651 E3.30997
G1 X144.518 Y118.929 E3.33696
G1 X144.027 Y119.203 E3.36501
G1 X143.496 Y119.479 E3.39487
G1 X142.967 Y119.735 E3.42419
G1 X142.494 Y119.946 E3.45003
G1 X141.975 Y120.16 E3.47804
G1 X141.401 Y120.376 E3.50863
G1 X140.88 Y120.553 E3.53608
G1 X140.206 Y120.761 E3.57128
G1 X139.839 Y120.861 E3.59025
G1 X139.215 Y121.014 E3.62231
G1 X138.668 Y121.13 E3.6502
G1 X138.11 Y121.231 E3.67849
G1 X137.583 Y121.311 E3.70509
G1 X136.853 Y121.398 E3.74177
G1 X136.461 Y121.432 E3.7614
G1 X135.728 Y121.474 E3.79802
G1 X135.288 Y121.486 E3.81998
G1 X134.623 Y121.485 E3.85316
G1 X134.177 Y121.471 E3.87542
G1 X133.556 Y121.434 E3.90646
G1 X133.083 Y121.392 E3.93015
G1 X132.446 Y121.316 E3.96216
G1 X131.88 Y121.23 E3.99072
G1 X131.334 Y121.132 E4.01839
G1 X130.791 Y121.018 E4.04608
G1 X130.234 Y120.882 E4.07468
G1 X129.685 Y120.731 E4.10309
G1 X129.166 Y120.572 E4.13017
G1 X128.623 Y120.386 E4.1588
G1 X127.953 Y120.134 E4.19452
G1 X127.541 Y119.964 E4.21675
G1 X126.933 Y119.692 E4.24998
G1 X126.536 Y119.499 E4.27201
G1 X125.874 Y119.154 E4.30925
G1 X125.47 Y118.926 E4.33239
G1 X125.039 Y118.669 E4.35743
G1 X124.59 Y118.383 E4.38399
G1 X124.062 Y118.024 E4.41584
G1 X123.63 Y117.711 E4.44246
G1 X123.154 Y117.343 E4.47247
G1 X122.714 Y116.981 E4.5009
G1 X122.323 Y116.64 E4.52678
G1 X121.897 Y116.246 E4.55573
G1 X121.375 Y115.73 E4.59235
G1 X121.096 Y115.436 E4.61257
G1 X120.702 Y115 E4.64189
G1 X120.363 Y114.6 E4.66805
G1 X119.976 Y114.116 E4.69897
G1 X119.645 Y113.676 E4.72644
G1 X119.299 Y113.184 E4.75644
G1 X118.993 Y112.72 E4.78417
G1 X118.643 Y112.151 E4.8175
G1 X118.418 Y111.757 E4.84014
G1 X118.097 Y111.159 E4.874
G1 X117.909 Y110.781 E4.89506
G1 X117.592 Y110.093 E4.93285
G1 X117.446 Y109.746 E4.95164
G1 X117.179 Y109.063 E4.98822
G1 X117.03 Y108.644 E5.01041
G1 X116.818 Y107.989 E5.04476
G1 X116.707 Y107.606 E5.06465
G1 X116.549 Y106.999 E5.09594
G1 X116.427 Y106.464 E5.12332
G1 X116.312 Y105.885 E5.15277
G1 X116.223 Y105.352 E5.17973
G1 X116.146 Y104.789 E5.20808
G1 X116.085 Y104.21 E5.23712
G1 X116.042 Y103.64 E5.26564
G1 X116.018 Y103.111 E5.29206
G1 X116.007 Y102.381 E5.32849
G1 X116.016 Y101.937 E5.35064
G1 X116.042 Y101.362 E5.37936
G1 X116.084 Y100.794 E5.40777
G1 X116.138 Y100.274 E5.43386
G1 X116.219 Y99.68 E5.46376
G1 X116.316 Y99.093 E5.49345
G1 X116.414 Y98.592 E5.51892
G1 X116.551 Y97.989 E5.54977
G1 X116.678 Y97.5 E5.57497
G1 X116.855 Y96.893 E5.60652
G1 X117.037 Y96.335 E5.6358
G1 X117.241 Y95.769 E5.66581
G1 X117.421 Y95.314 E5.69023
G1 X117.706 Y94.651 E5.72623
G1 X117.867 Y94.308 E5.74513
G1 X118.141 Y93.756 E5.77588
G1 X118.409 Y93.257 E5.80414
G1 X118.756 Y92.66 E5.83859
G1 X118.984 Y92.294 E5.8601
G1 X119.362 Y91.722 E5.89431
G1 X119.593 Y91.397 E5.9142
G1 X120.048 Y90.79 E5.95205
M205 X8.18 Y8.18
G0 F1800 X120.296 Y91.123
M205 X3 Y3
G1 F1200 X120.614 Y90.723 E5.97754
G1 X121.016 Y90.248 E6.00859
G1 X121.34 Y89.889 E6.03271
G1 X121.745 Y89.465 E6.06196
G1 X122.136 Y89.081 E6.08931
G1 X122.561 Y88.685 E6.11829
G1 X122.984 Y88.315 E6.14632
G1 X123.458 Y87.927 E6.17689
G1 X123.816 Y87.651 E6.19944
G1 X124.377 Y87.243 E6.23404
G1 X124.723 Y87.009 E6.25488
G1 X125.252 Y86.671 E6.2862
G1 X125.725 Y86.389 E6.31368
G1 X126.241 Y86.103 E6.34311
G1 X126.635 Y85.899 E6.36525
G1 X127.21 Y85.621 E6.39711
G1 X127.639 Y85.429 E6.42056
G1 X128.195 Y85.2 E6.45056
G1 X128.724 Y85.002 E6.47874
G1 X129.348 Y84.791 E6.5116
G1 X129.766 Y84.662 E6.53343
G1 X130.295 Y84.515 E6.56082
G1 X130.811 Y84.39 E6.58731
G1 X131.412 Y84.261 E6.61797
G1 X131.931 Y84.167 E6.64429
G1 X132.616 Y84.064 E6.67885
G1 X132.995 Y84.02 E6.69788
G1 X133.723 Y83.955 E6.73435
G1 X134.115 Y83.933 E6.75393
G1 X134.837 Y83.913 E6.78997
G1 X135.279 Y83.914 E6.81202
G1 X135.803 Y83.929 E6.83817
G1 X136.355 Y83.962 E6.86576
G1 X136.92 Y84.012 E6.89406
G1 X137.483 Y84.08 E6.92235
G1 X138.134 Y84.179 E6.9552
G1 X138.595 Y84.264 E6.97859
G1 X139.228 Y84.399 E7.01088
G1 X139.629 Y84.497 E7.03148
G1 X140.206 Y84.656 E7.06134
G1 X140.702 Y84.809 E7.08723
G1 X141.367 Y85.037 E7.1223
G1 X141.759 Y85.186 E7.14323
G1 X142.3 Y85.407 E7.17238
G1 X142.796 Y85.629 E7.19949
G1 X143.409 Y85.924 E7.23343
G1 X143.731 Y86.092 E7.25155
G1 X144.323 Y86.421 E7.28534
G1 X144.762 Y86.683 E7.31085
G1 X145.229 Y86.98 E7.33846
G1 X145.647 Y87.265 E7.3637
G1 X146.247 Y87.702 E7.40073
G1 X146.568 Y87.953 E7.42106
G1 X147.006 Y88.313 E7.44935
G1 X147.398 Y88.655 E7.4753
G1 X147.836 Y89.059 E7.50503
G1 X148.226 Y89.443 E7.53233
G1 X148.705 Y89.945 E7.56695
G1 X148.953 Y90.224 E7.58557
G1 X149.432 Y90.788 E7.62249
G1 X149.671 Y91.091 E7.64174
G1 X150.107 Y91.674 E7.67806
G1 X150.345 Y92.015 E7.69881
G1 X150.72 Y92.584 E7.73281
G1 X150.94 Y92.944 E7.75386
G1 X151.286 Y93.544 E7.78841
G1 X151.473 Y93.894 E7.80821
G1 X151.747 Y94.441 E7.83873
G1 X151.956 Y94.892 E7.86353
G1 X152.246 Y95.571 E7.90037
G1 X152.385 Y95.928 E7.91948
G1 X152.588 Y96.494 E7.94948
G1 X152.749 Y96.99 E7.9755
G1 X152.909 Y97.534 E8.00379
G1 X153.049 Y98.072 E8.03152
G1 X153.197 Y98.721 E8.06473
G1 X153.279 Y99.142 E8.08613
G1 X153.376 Y99.723 E8.11552
G1 X153.453 Y100.296 E8.14436
G1 X153.515 Y100.881 E8.17371
G1 X153.549 Y101.353 E8.19732
G1 X153.577 Y101.948 E8.22704
G1 X153.586 Y102.451 E8.25214
G1 X153.574 Y103.175 E8.28826
G1 X153.556 Y103.549 E8.30694
G1 X153.5 Y104.269 E8.34297
G1 X153.452 Y104.719 E8.36555
G1 X153.362 Y105.377 E8.39868
G1 X153.297 Y105.763 E8.41821
G1 X153.176 Y106.38 E8.44958
G1 X153.059 Y106.895 E8.47593
G1 X152.888 Y107.546 E8.50951
G1 X152.767 Y107.955 E8.53079
G1 X152.59 Y108.5 E8.55938
G1 X152.413 Y108.994 E8.58556
G1 X152.19 Y109.565 E8.61614
G1 X152.006 Y109.994 E8.63943
G1 X151.692 Y110.672 E8.6767
G1 X151.504 Y111.046 E8.69759
G1 X151.177 Y111.65 E8.73185
G1 X150.951 Y112.038 E8.75426
G1 X150.669 Y112.495 E8.78105
G1 X150.373 Y112.946 E8.80796
G1 X149.982 Y113.499 E8.84175
G1 X149.739 Y113.822 E8.86192
G1 X149.279 Y114.398 E8.89869
G1 X149.023 Y114.699 E8.91841
G1 X148.61 Y115.157 E8.94917
G1 X148.249 Y115.534 E8.97521
G1 X147.784 Y115.991 E9.00774
G1 X147.457 Y116.294 E9.02998
G1 X147.016 Y116.679 E9.05919
G1 X146.585 Y117.033 E9.08701
G1 X146.058 Y117.44 E9.12023
G1 X145.758 Y117.656 E9.13868
G1 X145.124 Y118.088 E9.17695
G1 X144.776 Y118.308 E9.19749
G1 X144.214 Y118.643 E9.23013
G1 X143.842 Y118.848 E9.25133
G1 X143.22 Y119.17 E9.28627
G1 X142.804 Y119.37 E9.3093
G1 X142.238 Y119.621 E9.34019
G1 X141.834 Y119.785 E9.36194
G1 X141.26 Y120.001 E9.39254
G1 X140.761 Y120.171 E9.41884
G1 X140.099 Y120.375 E9.4534
G1 X139.743 Y120.472 E9.47181
G1 X139.119 Y120.625 E9.50386
G1 X138.597 Y120.736 E9.53048
G1 X137.941 Y120.854 E9.56374
G1 X137.535 Y120.914 E9.58421
G1 X136.816 Y121 E9.62034
G1 X136.438 Y121.033 E9.63927
G1 X135.813 Y121.07 E9.67051
G1 X135.288 Y121.086 E9.69671
G1 X134.633 Y121.085 E9.72939
G1 X134.201 Y121.072 E9.75095
G1 X133.58 Y121.035 E9.78199
G1 X133.131 Y120.995 E9.80448
G1 X132.494 Y120.919 E9.83648
G1 X131.951 Y120.836 E9.86389
G1 X131.303 Y120.719 E9.89674
G1 X130.886 Y120.629 E9.91802
G1 X130.225 Y120.466 E9.95199
G1 X129.802 Y120.348 E9.9739
G1 X129.283 Y120.189 E10.00098
G1 X128.763 Y120.012 E10.02838
G1 X128.194 Y119.799 E10.05869
G1 X127.704 Y119.599 E10.0851
G1 X127.106 Y119.331 E10.11779
G1 X126.72 Y119.144 E10.13919
G1 X126.174 Y118.861 E10.16987
G1 X125.675 Y118.582 E10.19839
G1 X125.159 Y118.273 E10.2284
G1 X124.815 Y118.052 E10.2488
G1 X124.195 Y117.629 E10.28624
G1 X123.875 Y117.394 E10.30605
G1 X123.315 Y116.959 E10.34143
G1 X122.977 Y116.679 E10.36333
G1 X122.509 Y116.269 E10.39437
G1 X122.178 Y115.961 E10.41693
G1 X121.664 Y115.453 E10.45298
G1 X121.393 Y115.168 E10.4726
G1 X120.999 Y114.732 E10.50192
G1 X120.675 Y114.35 E10.52691
G1 X120.224 Y113.784 E10.56301
G1 X119.972 Y113.446 E10.58405
G1 X119.626 Y112.954 E10.61406
G1 X119.333 Y112.51 E10.6406
G1 X118.989 Y111.951 E10.67334
G1 X118.77 Y111.567 E10.6954
G1 X118.454 Y110.978 E10.72874
G1 X118.272 Y110.613 E10.74909
G1 X117.96 Y109.935 E10.78633
G1 X117.818 Y109.6 E10.80448
G1 X117.555 Y108.928 E10.84048
G1 X117.41 Y108.52 E10.86208
G1 X117.231 Y107.971 E10.89089
G1 X117.094 Y107.505 E10.91513
G1 X116.936 Y106.898 E10.94642
G1 X116.819 Y106.386 E10.97262
G1 X116.683 Y105.694 E11.00781
G1 X116.619 Y105.298 E11.02782
G1 X116.542 Y104.735 E11.05617
G1 X116.484 Y104.18 E11.08401
G1 X116.435 Y103.51 E11.11752
G1 X116.417 Y103.105 E11.13775
G1 X116.407 Y102.503 E11.16779
G1 X116.416 Y101.955 E11.19513
G1 X116.448 Y101.276 E11.22904
G1 X116.482 Y100.835 E11.25111
G1 X116.549 Y100.205 E11.28272
G1 X116.613 Y99.745 E11.30589
G1 X116.71 Y99.158 E11.33557
G1 X116.804 Y98.68 E11.35988
G1 X116.941 Y98.077 E11.39073
G1 X117.062 Y97.612 E11.4147
G1 X117.239 Y97.005 E11.44624
G1 X117.414 Y96.47 E11.47433
G1 X117.614 Y95.914 E11.5038
G1 X117.789 Y95.471 E11.52757
G1 X118.069 Y94.82 E11.56292
G1 X118.225 Y94.485 E11.58136
G1 X118.499 Y93.933 E11.6121
G1 X118.755 Y93.457 E11.63907
G1 X119.044 Y92.957 E11.66788
G1 X119.318 Y92.514 E11.69387
G1 X119.689 Y91.952 E11.72747
G1 X119.913 Y91.636 E11.74679
G1 X120.296 Y91.123 E11.77873
M205 X8.18 Y8.18
G0 F1800 X120.675 Y91.287
M205 X3 Y3
G1 F1200 X120.919 Y90.982 E11.79822
G1 X121.39 Y90.428 E11.83449
G1 X121.629 Y90.166 E11.85219
G1 X122.034 Y89.742 E11.88144
G1 X122.409 Y89.374 E11.90765
G1 X122.908 Y88.911 E11.94161
G1 X123.238 Y88.624 E11.96343
G1 X123.703 Y88.243 E11.99342
G1 X124.052 Y87.974 E12.01541
G1 X124.602 Y87.574 E12.04934
G1 X124.938 Y87.346 E12.06959
G1 X125.548 Y86.958 E12.10566
G1 X126.35 Y86.498 E12.15179
G1 X126.809 Y86.259 E12.17761
G1 X127.384 Y85.981 E12.20947
G1 X127.791 Y85.799 E12.23171
G1 X128.347 Y85.57 E12.26171
G1 X128.853 Y85.38 E12.28868
G1 X129.381 Y85.2 E12.31651
G1 X129.873 Y85.048 E12.3422
G1 X130.402 Y84.901 E12.36959
G1 X130.895 Y84.781 E12.39491
G1 X131.596 Y84.632 E12.43066
G1 X131.991 Y84.562 E12.45067
G1 X132.664 Y84.461 E12.48463
G1 X133.031 Y84.418 E12.50306
G1 X133.748 Y84.354 E12.53897
G1 X134.127 Y84.332 E12.55791
G1 X134.744 Y84.314 E12.58871
G1 X135.176 Y84.313 E12.61026
G1 X135.792 Y84.329 E12.64101
G1 X136.32 Y84.36 E12.66739
G1 X136.885 Y84.41 E12.69569
G1 X137.424 Y84.475 E12.72278
G1 X138.063 Y84.572 E12.75502
G1 X138.512 Y84.655 E12.7778
G1 X139.134 Y84.787 E12.80952
G1 X139.523 Y84.883 E12.82951
G1 X140.193 Y85.069 E12.8642
G1 X140.573 Y85.188 E12.88407
G1 X141.226 Y85.412 E12.91851
G1 X141.608 Y85.557 E12.9389
G1 X142.149 Y85.778 E12.96805
G1 X142.623 Y85.989 E12.99394
G1 X143.135 Y86.234 E13.02226
G1 X143.536 Y86.442 E13.04479
G1 X144.216 Y86.821 E13.08363
G1 X144.547 Y87.021 E13.10293
G1 X145.098 Y87.373 E13.13555
G1 X145.412 Y87.589 E13.15456
G1 X146.002 Y88.019 E13.19098
G1 X146.314 Y88.262 E13.21071
G1 X146.825 Y88.684 E13.24378
G1 X147.127 Y88.949 E13.26382
G1 X147.565 Y89.353 E13.29355
G1 X147.938 Y89.72 E13.31966
G1 X148.342 Y90.142 E13.3488
G1 X148.649 Y90.483 E13.37169
G1 X149.055 Y90.96 E13.40294
G1 X149.351 Y91.331 E13.42662
G1 X149.78 Y91.905 E13.46237
G1 X150.011 Y92.235 E13.48247
G1 X150.327 Y92.713 E13.51106
G1 X150.594 Y93.144 E13.53635
G1 X150.934 Y93.734 E13.57033
G1 X151.115 Y94.073 E13.5895
G1 X151.389 Y94.62 E13.62002
G1 X151.588 Y95.05 E13.64366
G1 X151.874 Y95.718 E13.67991
G1 X152.008 Y96.063 E13.69838
G1 X152.244 Y96.725 E13.73344
G1 X152.365 Y97.103 E13.75324
G1 X152.525 Y97.647 E13.78153
G1 X152.659 Y98.162 E13.80808
G1 X152.805 Y98.799 E13.84068
G1 X152.884 Y99.208 E13.86147
G1 X152.997 Y99.89 E13.89596
G1 X153.107 Y100.813 E13.94233
G1 X153.149 Y101.372 E13.9703
G1 X153.18 Y102.06 E14.00466
G1 X153.186 Y102.445 E14.02387
G1 X153.177 Y103.067 E14.0549
G1 X153.157 Y103.519 E14.07747
G1 X153.102 Y104.228 E14.11295
G1 X153.056 Y104.666 E14.13492
G1 X152.982 Y105.217 E14.16266
G1 X152.904 Y105.686 E14.18638
G1 X152.766 Y106.386 E14.22198
G1 X152.672 Y106.793 E14.24282
G1 X152.503 Y107.434 E14.27589
G1 X152.387 Y107.831 E14.29652
G1 X152.179 Y108.467 E14.32991
