;FLAVOR:Marlin
;TIME:679
;Filament used: 0.293302m
;Layer height: 0.12
;MINX:84.008
;MINY:84.013
;MINZ:0.12
;MAXX:135.985
;MAXY:135.986
;MAXZ:0.96
;Generated with Cura_SteamEngine 4.11.0
M140 S60
M105
M190 S60
M104 S200
M105
M109 S200
M82 ;absolute extrusion mode
; Ender 3 Custom Start G-code
G92 E0 ; Reset Extruder
G28 ; Home all axes
G1 Z2.0 F3000 ; Move Z Axis up little to prevent scratching of Heat Bed
G1 X0.1 Y20 Z0.3 F5000.0 ; Move to start position
G1 X0.1 Y200.0 Z0.3 F1500.0 E15 ; Draw the first line
G1 X0.4 Y200.0 Z0.3 F5000.0 ; Move to side a little
G1 X0.4 Y20 Z0.3 F1500.0 E30 ; Draw the second line
G92 E0 ; Reset Extruder
G1 Z2.0 F3000 ; Move Z Axis up little to prevent scratching of Heat Bed
G1 X5 Y20 Z0.3 F5000.0 ; Move over to prevent blob squish
G92 E0
G92 E0
G1 F1500 E-6.5
;LAYER_COUNT:8
;LAYER:0
M107
G0 F6000 X91.651 Y91.593 Z0.12
;TYPE:SKIRT
G1 F1500 E0
G1 F1200 X91.893 Y91.356 E0.00676
G1 X92.091 Y91.167 E0.01222
G1 X92.516 Y90.771 E0.02381
G1 X92.771 Y90.541 E0.03067
G1 X93.027 Y90.317 E0.03746
G1 X93.282 Y90.101 E0.04412
G1 X93.677 Y89.776 E0.05433
G1 X93.919 Y89.582 E0.06052
G1 X94.192 Y89.37 E0.06742
G1 X94.452 Y89.174 E0.07392
G1 X94.919 Y88.833 E0.08546
G1 X95.206 Y88.631 E0.09246
G1 X95.461 Y88.457 E0.09862
G1 X95.738 Y88.274 E0.10525
G1 X96.267 Y87.936 E0.11777
G1 X96.545 Y87.764 E0.1243
G1 X96.831 Y87.593 E0.13095
G1 X97.124 Y87.424 E0.1377
G1 X97.555 Y87.184 E0.14754
G1 X97.817 Y87.043 E0.15348
G1 X98.112 Y86.889 E0.16012
G1 X98.414 Y86.737 E0.16687
G1 X98.989 Y86.459 E0.17961
G1 X99.293 Y86.317 E0.18631
G1 X99.526 Y86.213 E0.1914
G1 X99.821 Y86.087 E0.1978
G1 X100.377 Y85.858 E0.2098
G1 X100.704 Y85.729 E0.21682
G1 X101.024 Y85.609 E0.22364
G1 X101.337 Y85.497 E0.23027
G1 X101.865 Y85.317 E0.2414
G1 X102.156 Y85.223 E0.24751
G1 X102.472 Y85.125 E0.25411
G1 X102.785 Y85.033 E0.26062
G1 X103.314 Y84.886 E0.27158
G1 X103.689 Y84.788 E0.27931
G1 X103.997 Y84.714 E0.28563
G1 X104.259 Y84.655 E0.29099
G1 X104.86 Y84.526 E0.30326
G1 X105.203 Y84.458 E0.31024
G1 X105.506 Y84.403 E0.31638
G1 X105.821 Y84.35 E0.32276
G1 X106.401 Y84.262 E0.33446
G1 X106.721 Y84.219 E0.34091
G1 X106.992 Y84.186 E0.34636
G1 X107.323 Y84.15 E0.353
G1 X107.948 Y84.093 E0.36552
G1 X108.263 Y84.069 E0.37183
G1 X108.536 Y84.052 E0.37729
G1 X108.899 Y84.036 E0.38454
G1 X109.516 Y84.018 E0.39686
G1 X109.837 Y84.013 E0.40326
G1 X110.176 Y84.013 E0.41003
G1 X110.491 Y84.018 E0.41632
G1 X111.015 Y84.033 E0.42678
G1 X111.35 Y84.047 E0.43347
G1 X111.688 Y84.067 E0.44023
G1 X112.008 Y84.091 E0.44663
G1 X112.573 Y84.141 E0.45795
G1 X112.921 Y84.177 E0.46493
G1 X113.269 Y84.219 E0.47193
G1 X113.577 Y84.261 E0.47813
G1 X114.119 Y84.342 E0.48906
G1 X114.453 Y84.397 E0.49582
G1 X114.812 Y84.462 E0.5031
G1 X115.122 Y84.523 E0.50941
G1 X115.653 Y84.635 E0.52024
G1 X115.964 Y84.705 E0.5266
G1 X116.254 Y84.775 E0.53255
G1 X116.595 Y84.863 E0.53958
G1 X117.172 Y85.022 E0.55152
G1 X117.49 Y85.115 E0.55813
G1 X117.782 Y85.205 E0.56423
G1 X118.088 Y85.304 E0.57065
G1 X118.646 Y85.494 E0.58241
G1 X118.97 Y85.61 E0.58928
G1 X119.268 Y85.722 E0.59563
G1 X119.558 Y85.836 E0.60185
G1 X120.099 Y86.057 E0.61351
G1 X120.443 Y86.205 E0.62099
G1 X120.746 Y86.341 E0.62762
G1 X120.99 Y86.454 E0.63298
G1 X121.502 Y86.699 E0.64431
G1 X121.81 Y86.852 E0.65117
G1 X122.038 Y86.97 E0.6563
G1 X122.325 Y87.124 E0.6628
G1 X122.917 Y87.453 E0.67631
G1 X123.217 Y87.626 E0.68322
G1 X123.473 Y87.779 E0.68917
G1 X123.733 Y87.939 E0.69527
G1 X124.2 Y88.236 E0.70631
G1 X124.488 Y88.425 E0.71319
G1 X124.723 Y88.585 E0.71886
G1 X124.995 Y88.777 E0.7255
G1 X125.506 Y89.148 E0.7381
G1 X125.776 Y89.35 E0.74483
G1 X126.015 Y89.535 E0.75087
G1 X126.267 Y89.736 E0.7573
G1 X126.705 Y90.096 E0.76861
G1 X126.956 Y90.309 E0.77518
G1 X127.193 Y90.516 E0.78146
G1 X127.415 Y90.715 E0.78741
G1 X127.853 Y91.119 E0.7993
G1 X128.122 Y91.376 E0.80673
G1 X128.353 Y91.604 E0.8132
G1 X128.572 Y91.826 E0.81943
G1 X128.976 Y92.248 E0.83109
G1 X129.202 Y92.492 E0.83772
G1 X129.384 Y92.694 E0.84315
G1 X129.589 Y92.927 E0.84934
G1 X129.995 Y93.404 E0.86184
G1 X130.215 Y93.672 E0.86876
G1 X130.389 Y93.89 E0.87433
G1 X130.59 Y94.149 E0.88087
G1 X130.963 Y94.646 E0.89327
G1 X131.155 Y94.91 E0.89979
G1 X131.332 Y95.161 E0.90591
G1 X131.518 Y95.434 E0.91251
G1 X131.834 Y95.912 E0.92394
G1 X132.013 Y96.192 E0.93057
G1 X132.18 Y96.462 E0.93691
G1 X132.344 Y96.736 E0.94328
G1 X132.637 Y97.242 E0.95495
G1 X132.798 Y97.53 E0.96153
G1 X132.934 Y97.782 E0.96725
G1 X133.089 Y98.079 E0.97393
G1 X133.363 Y98.626 E0.98614
G1 X133.509 Y98.929 E0.99286
G1 X133.629 Y99.188 E0.99855
G1 X133.756 Y99.473 E1.00478
G1 X134.005 Y100.053 E1.01737
G1 X134.13 Y100.356 E1.02392
G1 X134.229 Y100.607 E1.0293
G1 X134.35 Y100.929 E1.03616
G1 X134.553 Y101.495 E1.04816
G1 X134.666 Y101.826 E1.05514
G1 X134.762 Y102.123 E1.06137
G1 X134.848 Y102.402 E1.0672
G1 X135.008 Y102.946 E1.07852
G1 X135.102 Y103.284 E1.08552
G1 X135.188 Y103.615 E1.09234
G1 X135.26 Y103.909 E1.09838
G1 X135.385 Y104.451 E1.10948
G1 X135.455 Y104.779 E1.11617
G1 X135.517 Y105.091 E1.12252
G1 X135.578 Y105.424 E1.12928
G1 X135.675 Y106.005 E1.14103
G1 X135.727 Y106.352 E1.14804
G1 X135.776 Y106.717 E1.15539
G1 X135.811 Y107.004 E1.16115
G1 X135.862 Y107.478 E1.17067
G1 X135.893 Y107.818 E1.17748
G1 X135.921 Y108.185 E1.18483
G1 X135.941 Y108.505 E1.19123
G1 X135.969 Y109.1 E1.20311
G1 X135.979 Y109.422 E1.20954
G1 X135.984 Y109.704 E1.21517
G1 X135.985 Y110.058 E1.22223
G1 X135.976 Y110.68 E1.23465
G1 X135.967 Y110.991 E1.24086
G1 X135.956 Y111.248 E1.24599
G1 X135.935 Y111.607 E1.25317
G1 X135.888 Y112.229 E1.26562
G1 X135.861 Y112.526 E1.27157
G1 X135.826 Y112.866 E1.27839
G1 X135.786 Y113.204 E1.28518
G1 X135.712 Y113.755 E1.29627
G1 X135.663 Y114.08 E1.30283
G1 X135.617 Y114.359 E1.30848
G1 X135.558 Y114.687 E1.31513
G1 X135.437 Y115.304 E1.32767
G1 X135.378 Y115.589 E1.33348
G1 X135.312 Y115.884 E1.33952
G1 X135.218 Y116.27 E1.34744
G1 X135.071 Y116.831 E1.35902
G1 X134.995 Y117.107 E1.36473
G1 X134.908 Y117.407 E1.37096
G1 X134.805 Y117.741 E1.37794
G1 X134.628 Y118.286 E1.38937
G1 X134.522 Y118.597 E1.39593
G1 X134.416 Y118.893 E1.4022
G1 X134.306 Y119.186 E1.40845
G1 X134.083 Y119.757 E1.42068
G1 X133.941 Y120.104 E1.42817
G1 X133.842 Y120.334 E1.43316
G1 X133.725 Y120.596 E1.43889
G1 X133.454 Y121.183 E1.45179
G1 X133.32 Y121.462 E1.45797
G1 X133.188 Y121.728 E1.46389
G1 X133.018 Y122.058 E1.4713
G1 X132.742 Y122.57 E1.48291
G1 X132.586 Y122.849 E1.48929
G1 X132.414 Y123.147 E1.49615
G1 X132.248 Y123.424 E1.5026
G1 X131.966 Y123.881 E1.51332
G1 X131.81 Y124.128 E1.51915
G1 X131.634 Y124.397 E1.52556
G1 X131.425 Y124.704 E1.53297
G1 X131.095 Y125.173 E1.54442
G1 X130.908 Y125.431 E1.55077
G1 X130.73 Y125.669 E1.55671
G1 X130.531 Y125.927 E1.56321
G1 X130.135 Y126.425 E1.57591
G1 X129.939 Y126.664 E1.58207
G1 X129.763 Y126.873 E1.58753
G1 X129.518 Y127.154 E1.59497
G1 X129.105 Y127.612 E1.60727
G1 X128.888 Y127.846 E1.61364
G1 X128.672 Y128.072 E1.61988
G1 X128.448 Y128.3 E1.62626
G1 X128.056 Y128.687 E1.63725
G1 X127.832 Y128.902 E1.64345
G1 X127.593 Y129.125 E1.64997
G1 X127.323 Y129.368 E1.65722
G1 X126.882 Y129.753 E1.6689
G1 X126.634 Y129.964 E1.6754
G1 X126.364 Y130.186 E1.68238
G1 X126.123 Y130.378 E1.68853
G1 X125.685 Y130.718 E1.69959
G1 X125.412 Y130.923 E1.7064
G1 X125.199 Y131.078 E1.71166
G1 X124.933 Y131.266 E1.71816
G1 X124.39 Y131.637 E1.73128
G1 X124.111 Y131.822 E1.73797
G1 X123.853 Y131.987 E1.74408
G1 X123.579 Y132.156 E1.7505
G1 X123.115 Y132.434 E1.7613
G1 X122.816 Y132.607 E1.76819
G1 X122.536 Y132.763 E1.77459
G1 X122.255 Y132.914 E1.78095
G1 X121.724 Y133.19 E1.79289
G1 X121.444 Y133.331 E1.79915
G1 X121.13 Y133.483 E1.80611
G1 X120.818 Y133.628 E1.81298
G1 X120.345 Y133.839 E1.82331
G1 X120.061 Y133.961 E1.82948
G1 X119.763 Y134.084 E1.83592
G1 X119.44 Y134.211 E1.84284
G1 X118.866 Y134.427 E1.85508
G1 X118.534 Y134.546 E1.86212
G1 X118.237 Y134.647 E1.86838
G1 X117.954 Y134.739 E1.87432
G1 X117.393 Y134.913 E1.88604
G1 X117.082 Y135.004 E1.89251
G1 X116.834 Y135.073 E1.89764
G1 X116.506 Y135.16 E1.90441
G1 X115.882 Y135.313 E1.91724
G1 X115.548 Y135.389 E1.92407
G1 X115.242 Y135.454 E1.93031
G1 X114.915 Y135.518 E1.93696
G1 X114.357 Y135.619 E1.94828
G1 X114.057 Y135.669 E1.95435
G1 X113.762 Y135.714 E1.96031
G1 X113.424 Y135.76 E1.96711
G1 X112.804 Y135.835 E1.97958
G1 X112.502 Y135.868 E1.98564
G1 X112.244 Y135.892 E1.99081
G1 X111.875 Y135.92 E1.99819
G1 X111.25 Y135.957 E2.01069
G1 X110.952 Y135.97 E2.01664
G1 X110.64 Y135.98 E2.02287
G1 X110.288 Y135.986 E2.0299
G1 X109.726 Y135.986 E2.04111
G1 X109.443 Y135.982 E2.04676
G1 X109.132 Y135.974 E2.05297
G1 X108.761 Y135.959 E2.06038
G1 X108.14 Y135.922 E2.07279
G1 X107.823 Y135.898 E2.07914
G1 X107.586 Y135.877 E2.08388
G1 X107.254 Y135.843 E2.09054
G1 X106.617 Y135.767 E2.10335
G1 X106.255 Y135.717 E2.11064
G1 X105.922 Y135.666 E2.11736
G1 X105.644 Y135.62 E2.12299
G1 X105.098 Y135.522 E2.13406
G1 X104.788 Y135.462 E2.14036
G1 X104.487 Y135.399 E2.14649
G1 X104.131 Y135.318 E2.15378
G1 X103.574 Y135.182 E2.16522
G1 X103.256 Y135.099 E2.17178
G1 X102.93 Y135.009 E2.17853
G1 X102.635 Y134.924 E2.18466
G1 X102.116 Y134.765 E2.19549
G1 X101.78 Y134.656 E2.20254
G1 X101.467 Y134.549 E2.20914
G1 X101.169 Y134.442 E2.21546
G1 X100.6 Y134.229 E2.22758
G1 X100.322 Y134.12 E2.23354
G1 X100.036 Y134.004 E2.2397
G1 X99.69 Y133.857 E2.2472
G1 X99.181 Y133.63 E2.25832
G1 X98.91 Y133.505 E2.26428
G1 X98.626 Y133.369 E2.27056
G1 X98.315 Y133.214 E2.2775
G1 X97.769 Y132.931 E2.28977
G1 X97.45 Y132.759 E2.297
G1 X97.138 Y132.584 E2.30414
G1 X96.885 Y132.438 E2.30997
G1 X96.454 Y132.181 E2.31999
G1 X96.194 Y132.021 E2.32608
G1 X95.945 Y131.863 E2.33196
G1 X95.654 Y131.672 E2.33891
G1 X95.126 Y131.313 E2.35165
G1 X94.846 Y131.115 E2.35849
G1 X94.612 Y130.945 E2.36427
G1 X94.349 Y130.749 E2.37081
G1 X93.873 Y130.381 E2.38282
G1 X93.617 Y130.177 E2.38935
G1 X93.359 Y129.965 E2.39602
G1 X93.113 Y129.756 E2.40246
G1 X92.722 Y129.415 E2.41281
G1 X92.488 Y129.205 E2.41908
G1 X92.239 Y128.975 E2.42585
G1 X91.988 Y128.736 E2.43277
G1 X91.55 Y128.305 E2.44503
G1 X91.318 Y128.07 E2.45162
G1 X91.117 Y127.86 E2.45742
G1 X90.903 Y127.629 E2.4637
G1 X90.509 Y127.193 E2.47543
G1 X90.277 Y126.929 E2.48244
G1 X90.094 Y126.713 E2.48809
G1 X89.896 Y126.471 E2.49433
G1 X89.509 Y125.987 E2.5067
G1 X89.313 Y125.735 E2.51307
G1 X89.13 Y125.492 E2.51914
G1 X88.919 Y125.203 E2.52628
G1 X88.573 Y124.711 E2.53829
G1 X88.397 Y124.453 E2.54452
G1 X88.221 Y124.187 E2.55088
G1 X88.039 Y123.901 E2.55765
G1 X87.754 Y123.44 E2.56847
G1 X87.575 Y123.141 E2.57542
G1 X87.403 Y122.842 E2.5823
G1 X87.258 Y122.581 E2.58826
G1 X86.986 Y122.077 E2.59969
G1 X86.851 Y121.82 E2.60548
G1 X86.725 Y121.571 E2.61105
G1 X86.553 Y121.216 E2.61893
G1 X86.281 Y120.627 E2.63187
G1 X86.16 Y120.353 E2.63785
G1 X86.06 Y120.12 E2.64291
G1 X85.931 Y119.809 E2.64963
G1 X85.706 Y119.237 E2.66189
G1 X85.592 Y118.931 E2.66841
G1 X85.482 Y118.625 E2.6749
G1 X85.375 Y118.314 E2.68146
G1 X85.196 Y117.765 E2.69299
G1 X85.106 Y117.474 E2.69907
G1 X85.03 Y117.217 E2.70441
G1 X84.933 Y116.869 E2.71162
G1 X84.775 Y116.262 E2.72414
G1 X84.697 Y115.944 E2.73067
G1 X84.627 Y115.638 E2.73694
G1 X84.561 Y115.328 E2.74326
G1 X84.446 Y114.749 E2.75504
G1 X84.383 Y114.402 E2.76208
G1 X84.334 Y114.106 E2.76807
G1 X84.287 Y113.801 E2.77423
G1 X84.21 Y113.238 E2.78557
G1 X84.168 Y112.88 E2.79276
G1 X84.133 Y112.542 E2.79954
G1 X84.105 Y112.236 E2.80567
G1 X84.062 Y111.666 E2.81708
G1 X84.043 Y111.362 E2.82316
G1 X84.029 Y111.068 E2.82903
G1 X84.019 Y110.728 E2.83582
G1 X84.009 Y110.126 E2.84784
G1 X84.008 Y109.774 E2.85486
G1 X84.013 Y109.449 E2.86135
G1 X84.023 Y109.121 E2.8679
G1 X84.049 Y108.546 E2.87938
G1 X84.068 Y108.227 E2.88576
G1 X84.093 Y107.891 E2.89248
G1 X84.122 Y107.571 E2.8989
G1 X84.176 Y107.051 E2.90933
G1 X84.216 Y106.713 E2.91612
G1 X84.264 Y106.358 E2.92327
G1 X84.312 Y106.039 E2.92971
G1 X84.409 Y105.452 E2.94158
G1 X84.473 Y105.103 E2.94866
G1 X84.526 Y104.836 E2.95409
G1 X84.588 Y104.541 E2.96011
G1 X84.725 Y103.938 E2.97245
G1 X84.803 Y103.619 E2.979
G1 X84.869 Y103.364 E2.98426
G1 X84.958 Y103.041 E2.99095
G1 X85.135 Y102.434 E3.00356
G1 X85.241 Y102.092 E3.01071
G1 X85.349 Y101.762 E3.01764
G1 X85.446 Y101.476 E3.02367
G1 X85.611 Y101.015 E3.03344
G1 X85.719 Y100.726 E3.03959
G1 X85.85 Y100.39 E3.04679
G1 X85.985 Y100.062 E3.05387
G1 X86.221 Y99.51 E3.06585
G1 X86.356 Y99.207 E3.07247
G1 X86.471 Y98.959 E3.07792
G1 X86.597 Y98.695 E3.08376
G1 X86.871 Y98.143 E3.09606
G1 X87.038 Y97.821 E3.1033
G1 X87.186 Y97.546 E3.10953
G1 X87.348 Y97.254 E3.11619
G1 X87.637 Y96.754 E3.12772
G1 X87.798 Y96.486 E3.13396
G1 X87.962 Y96.22 E3.14019
G1 X88.137 Y95.945 E3.1467
G1 X88.447 Y95.474 E3.15795
G1 X88.634 Y95.198 E3.16461
G1 X88.797 Y94.966 E3.17026
G1 X88.984 Y94.709 E3.17661
G1 X89.367 Y94.196 E3.18938
G1 X89.566 Y93.938 E3.19588
G1 X89.747 Y93.71 E3.20169
G1 X89.965 Y93.443 E3.20857
G1 X90.367 Y92.968 E3.22099
G1 X90.604 Y92.697 E3.22818
G1 X90.783 Y92.499 E3.2335
G1 X90.989 Y92.278 E3.23953
G1 X91.394 Y91.854 E3.25123
G1 X91.651 Y91.593 E3.25854
G0 F6000 X91.931 Y91.879
G1 F1200 X92.173 Y91.642 E3.2653
G1 X92.364 Y91.46 E3.27057
G1 X92.789 Y91.064 E3.28216
G1 X93.035 Y90.842 E3.28877
G1 X93.291 Y90.618 E3.29556
G1 X93.536 Y90.41 E3.30197
G1 X93.931 Y90.085 E3.31218
G1 X94.165 Y89.898 E3.31816
G1 X94.438 Y89.686 E3.32506
G1 X94.688 Y89.497 E3.33131
G1 X95.155 Y89.156 E3.34285
G1 X95.431 Y88.961 E3.34959
G1 X95.686 Y88.787 E3.35576
G1 X95.954 Y88.611 E3.36215
G1 X96.483 Y88.273 E3.37468
G1 X96.75 Y88.107 E3.38096
G1 X97.036 Y87.936 E3.38761
G1 X97.319 Y87.773 E3.39412
G1 X97.75 Y87.533 E3.40397
G1 X98.002 Y87.397 E3.40968
G1 X98.297 Y87.243 E3.41632
G1 X98.588 Y87.097 E3.42282
G1 X99.163 Y86.819 E3.43557
G1 X99.457 Y86.682 E3.44204
G1 X99.69 Y86.578 E3.44713
G1 X99.973 Y86.457 E3.45327
G1 X100.529 Y86.228 E3.46527
G1 X100.844 Y86.104 E3.47203
G1 X101.164 Y85.984 E3.47885
G1 X101.466 Y85.876 E3.48525
G1 X101.994 Y85.696 E3.49638
G1 X102.274 Y85.605 E3.50226
G1 X102.59 Y85.507 E3.50886
G1 X102.892 Y85.418 E3.51514
G1 X103.421 Y85.271 E3.5261
G1 X103.783 Y85.177 E3.53356
G1 X104.091 Y85.103 E3.53988
G1 X104.342 Y85.046 E3.54502
G1 X104.943 Y84.917 E3.55729
G1 X105.275 Y84.851 E3.56404
G1 X105.578 Y84.796 E3.57019
G1 X105.881 Y84.746 E3.57632
G1 X106.461 Y84.658 E3.58802
G1 X106.77 Y84.616 E3.59425
G1 X107.041 Y84.583 E3.59969
G1 X107.359 Y84.549 E3.60608
G1 X107.984 Y84.492 E3.6186
G1 X108.288 Y84.468 E3.62469
G1 X108.561 Y84.451 E3.63014
G1 X108.911 Y84.436 E3.63714
G1 X109.528 Y84.418 E3.64945
G1 X109.837 Y84.413 E3.65562
G1 X110.176 Y84.413 E3.66239
G1 X110.479 Y84.417 E3.66843
G1 X111.003 Y84.432 E3.67889
G1 X111.326 Y84.447 E3.68535
G1 X111.664 Y84.467 E3.6921
G1 X111.972 Y84.489 E3.69827
G1 X112.537 Y84.539 E3.70959
G1 X112.873 Y84.574 E3.71633
G1 X113.221 Y84.616 E3.72332
G1 X113.518 Y84.656 E3.7293
G1 X114.06 Y84.737 E3.74024
G1 X114.382 Y84.791 E3.74675
G1 X114.741 Y84.856 E3.75404
G1 X115.04 Y84.914 E3.76011
G1 X115.571 Y85.026 E3.77094
G1 X115.87 Y85.094 E3.77706
G1 X116.16 Y85.164 E3.78302
G1 X116.489 Y85.249 E3.7898
G1 X117.066 Y85.408 E3.80174
G1 X117.372 Y85.497 E3.8081
G1 X117.664 Y85.587 E3.8142
G1 X117.959 Y85.683 E3.82039
G1 X118.517 Y85.873 E3.83215
G1 X118.829 Y85.985 E3.83877
G1 X119.127 Y86.097 E3.84512
G1 X119.407 Y86.206 E3.85112
G1 X119.948 Y86.427 E3.86278
G1 X120.28 Y86.569 E3.86999
G1 X120.583 Y86.705 E3.87661
G1 X120.817 Y86.814 E3.88176
G1 X121.329 Y87.059 E3.89309
G1 X121.626 Y87.207 E3.89971
G1 X121.854 Y87.325 E3.90484
G1 X122.131 Y87.474 E3.91111
G1 X122.723 Y87.803 E3.92463
G1 X123.012 Y87.969 E3.93128
G1 X123.268 Y88.122 E3.93723
G1 X123.518 Y88.277 E3.9431
G1 X123.985 Y88.574 E3.95415
G1 X124.263 Y88.756 E3.96078
G1 X124.498 Y88.916 E3.96645
G1 X124.76 Y89.1 E3.97284
G1 X125.271 Y89.471 E3.98544
G1 X125.531 Y89.667 E3.99194
G1 X125.77 Y89.852 E3.99797
G1 X126.013 Y90.045 E4.00416
G1 X126.451 Y90.405 E4.01548
G1 X126.693 Y90.61 E4.02181
G1 X126.93 Y90.817 E4.02809
G1 X127.144 Y91.009 E4.03382
